; generated by Slic3r 0.9.3 on 2012-11-28 at 21:02:05

; layer_height = 0.25
; perimeters = 2
; solid_layers = 3
; fill_density = .3
; perimeter_speed = 50
; infill_speed = 50
; travel_speed = 80
; scale = 1
; nozzle_diameter = 0.5
; filament_diameter = 3.0
; extrusion_multiplier = 1.05
; single wall width = 0.70mm

M107
M190 S65 ; wait for bed temperature to be reached
M104 S188 ; set temperature
G28 ; home all
M140 S75 ; turn on bed
M109 S188 ; wait for temperature to be reached
G90 ; use absolute coordinates
G21 ; set units to millimeters
G92 E0
M82 ; use absolute distances for extrusion
G1 F600.000 E-0.50000
G92 E0
G1 Z0.125 F4800.000
G1 X65.338 Y105.458
G1 F600.000 E0.50000
G1 X65.578 Y105.228 F1200.000 E0.50411
G1 X66.158 Y104.758 E0.51333
G1 X66.618 Y104.478 E0.51998
G1 X66.968 Y104.298 E0.52484
G1 X67.298 Y104.158 E0.52926
G1 X67.468 Y104.098 E0.53149
G1 X68.178 Y103.908 E0.54057
G1 X68.338 Y103.878 E0.54258
G1 X68.898 Y103.818 E0.54953
G1 X69.278 Y103.798 E0.55423
G1 X90.708 Y103.798 E0.81890
G1 X91.318 Y103.838 E0.82645
G1 X91.648 Y103.878 E0.83055
G1 X92.138 Y103.988 E0.83675
G1 X92.518 Y104.098 E0.84164
G1 X92.688 Y104.158 E0.84387
G1 X93.018 Y104.298 E0.84829
G1 X93.528 Y104.568 E0.85542
G1 X93.828 Y104.758 E0.85981
G1 X94.408 Y105.228 E0.86902
G1 X94.648 Y105.458 E0.87313
G1 X95.228 Y106.158 E0.88436
G1 X95.508 Y106.618 E0.89101
G1 X95.608 Y106.808 E0.89366
G1 X95.878 Y107.458 E0.90235
G1 X96.008 Y107.868 E0.90766
G1 X96.108 Y108.268 E0.91276
G1 X96.178 Y108.898 E0.92058
G1 X96.198 Y109.278 E0.92528
G1 X96.198 Y130.708 E1.18995
G1 X96.138 Y131.518 E1.19998
G1 X96.108 Y131.718 E1.20248
G1 X95.948 Y132.318 E1.21015
G1 X95.878 Y132.528 E1.21288
G1 X95.608 Y133.178 E1.22157
G1 X95.328 Y133.678 E1.22865
G1 X95.228 Y133.828 E1.23088
G1 X94.758 Y134.408 E1.24010
G1 X94.528 Y134.648 E1.24420
G1 X93.828 Y135.228 E1.25543
G1 X93.368 Y135.508 E1.26208
G1 X93.178 Y135.608 E1.26473
G1 X92.528 Y135.878 E1.27342
G1 X92.118 Y136.008 E1.27873
G1 X91.718 Y136.108 E1.28383
G1 X91.088 Y136.178 E1.29166
G1 X90.708 Y136.198 E1.29636
G1 X69.278 Y136.198 E1.56102
G1 X68.468 Y136.138 E1.57105
G1 X68.268 Y136.108 E1.57355
G1 X67.668 Y135.948 E1.58122
G1 X67.458 Y135.878 E1.58395
G1 X66.808 Y135.608 E1.59264
G1 X66.308 Y135.328 E1.59972
G1 X66.158 Y135.228 E1.60195
G1 X65.578 Y134.758 E1.61117
G1 X65.338 Y134.528 E1.61527
G1 X64.758 Y133.828 E1.62650
G1 X64.478 Y133.368 E1.63315
G1 X64.298 Y133.018 E1.63801
G1 X64.158 Y132.688 E1.64244
G1 X64.098 Y132.518 E1.64466
G1 X63.908 Y131.808 E1.65374
G1 X63.878 Y131.648 E1.65575
G1 X63.818 Y131.088 E1.66271
G1 X63.798 Y130.708 E1.66741
G1 X63.798 Y109.278 E1.93207
G1 X63.838 Y108.668 E1.93962
G1 X63.878 Y108.338 E1.94372
G1 X63.988 Y107.848 E1.94993
G1 X64.098 Y107.468 E1.95481
G1 X64.158 Y107.298 E1.95704
G1 X64.298 Y106.968 E1.96147
G1 X64.568 Y106.458 E1.96859
G1 X64.758 Y106.158 E1.97298
G1 X64.888 Y105.994 E1.97556
G1 X65.498 Y106.308 F4800.000
G1 X65.728 Y106.028 F1200.000 E1.98004
G1 X66.028 Y105.728 E1.98528
G1 X66.548 Y105.318 E1.99346
G1 X66.938 Y105.078 E1.99911
G1 X67.398 Y104.848 E2.00546
G1 X67.828 Y104.698 E2.01109
G1 X68.038 Y104.638 E2.01379
G1 X68.448 Y104.548 E2.01897
G1 X68.588 Y104.528 E2.02072
G1 X69.278 Y104.478 E2.02926
G1 X90.708 Y104.478 E2.29392
G1 X91.398 Y104.528 E2.30247
G1 X91.538 Y104.548 E2.30422
G1 X91.948 Y104.638 E2.30940
G1 X92.588 Y104.848 E2.31772
G1 X93.048 Y105.078 E2.32407
G1 X93.438 Y105.318 E2.32973
G1 X93.958 Y105.728 E2.33790
G1 X94.258 Y106.028 E2.34314
G1 X94.668 Y106.548 E2.35132
G1 X94.908 Y106.938 E2.35698
G1 X95.008 Y107.128 E2.35963
G1 X95.238 Y107.678 E2.36699
G1 X95.358 Y108.048 E2.37179
G1 X95.438 Y108.388 E2.37611
G1 X95.468 Y108.558 E2.37824
G1 X95.518 Y109.278 E2.38715
G1 X95.518 Y130.708 E2.65182
G1 X95.468 Y131.428 E2.66073
G1 X95.438 Y131.598 E2.66286
G1 X95.358 Y131.938 E2.66718
G1 X95.238 Y132.308 E2.67198
G1 X95.008 Y132.858 E2.67934
G1 X94.908 Y133.048 E2.68199
G1 X94.668 Y133.438 E2.68765
G1 X94.258 Y133.958 E2.69583
G1 X93.958 Y134.258 E2.70107
G1 X93.438 Y134.668 E2.70925
G1 X93.048 Y134.908 E2.71490
G1 X92.858 Y135.008 E2.71755
G1 X92.308 Y135.238 E2.72492
G1 X91.938 Y135.358 E2.72972
G1 X91.598 Y135.438 E2.73403
G1 X91.428 Y135.468 E2.73617
G1 X90.708 Y135.518 E2.74508
G1 X69.278 Y135.518 E3.00974
G1 X68.558 Y135.468 E3.01866
G1 X68.388 Y135.438 E3.02079
G1 X68.048 Y135.358 E3.02510
G1 X67.678 Y135.238 E3.02991
G1 X67.128 Y135.008 E3.03727
G1 X66.938 Y134.908 E3.03992
G1 X66.548 Y134.668 E3.04558
G1 X66.028 Y134.258 E3.05375
G1 X65.728 Y133.958 E3.05899
G1 X65.318 Y133.438 E3.06717
G1 X65.078 Y133.048 E3.07283
G1 X64.848 Y132.588 E3.07918
G1 X64.698 Y132.158 E3.08480
G1 X64.638 Y131.948 E3.08750
G1 X64.548 Y131.538 E3.09268
G1 X64.528 Y131.398 E3.09443
G1 X64.478 Y130.708 E3.10297
G1 X64.478 Y109.278 E3.36764
G1 X64.528 Y108.588 E3.37618
G1 X64.548 Y108.448 E3.37793
G1 X64.638 Y108.038 E3.38311
G1 X64.848 Y107.398 E3.39143
G1 X65.078 Y106.938 E3.39778
G1 X65.109 Y106.889 E3.39850
G1 F600.000 E2.89850
G92 E0
G1 X90.890 Y108.882 F4800.000
G1 F600.000 E0.50000
G1 X90.963 Y108.921 F1200.000 E0.50103
G1 X91.027 Y108.973 E0.50206
G1 X91.079 Y109.037 E0.50310
G1 X91.118 Y109.110 E0.50413
G1 X91.142 Y109.189 E0.50516
G1 X91.155 Y109.322 E0.50683
G1 X91.155 Y130.678 E0.77377
G1 X91.142 Y130.811 E0.77544
G1 X91.118 Y130.890 E0.77647
G1 X91.079 Y130.963 E0.77751
G1 X91.027 Y131.027 E0.77854
G1 X90.963 Y131.079 E0.77957
G1 X90.890 Y131.118 E0.78060
G1 X90.811 Y131.142 E0.78163
G1 X90.678 Y131.155 E0.78330
G1 X69.322 Y131.155 E1.05025
G1 X69.189 Y131.142 E1.05192
G1 X69.110 Y131.118 E1.05295
G1 X69.037 Y131.079 E1.05398
G1 X68.973 Y131.027 E1.05501
G1 X68.921 Y130.963 E1.05604
G1 X68.882 Y130.890 E1.05708
G1 X68.858 Y130.811 E1.05811
G1 X68.845 Y130.678 E1.05978
G1 X68.845 Y109.322 E1.32672
G1 X68.858 Y109.189 E1.32839
G1 X68.882 Y109.110 E1.32942
G1 X68.921 Y109.037 E1.33046
G1 X68.973 Y108.973 E1.33149
G1 X69.037 Y108.921 E1.33252
G1 X69.110 Y108.882 E1.33355
G1 X69.189 Y108.858 E1.33458
G1 X69.322 Y108.845 E1.33625
G1 X90.194 Y108.845 E1.59715
G1 X90.712 Y108.158 F4800.000
G1 X90.946 Y108.181 F1200.000 E1.60008
G1 X91.154 Y108.245 E1.60281
G1 X91.346 Y108.347 E1.60553
G1 X91.514 Y108.486 E1.60825
G1 X91.653 Y108.654 E1.61097
G1 X91.755 Y108.846 E1.61370
G1 X91.819 Y109.054 E1.61641
G1 X91.842 Y109.288 E1.61935
G1 X91.842 Y130.712 E1.88714
G1 X91.819 Y130.946 E1.89008
G1 X91.755 Y131.154 E1.89280
G1 X91.653 Y131.346 E1.89552
G1 X91.514 Y131.514 E1.89824
G1 X91.346 Y131.653 E1.90097
G1 X91.154 Y131.755 E1.90369
G1 X90.946 Y131.819 E1.90641
G1 X90.712 Y131.842 E1.90935
G1 X69.288 Y131.842 E2.17714
G1 X69.054 Y131.819 E2.18007
G1 X68.846 Y131.755 E2.18279
G1 X68.654 Y131.653 E2.18552
G1 X68.486 Y131.514 E2.18824
G1 X68.347 Y131.346 E2.19096
G1 X68.245 Y131.154 E2.19368
G1 X68.181 Y130.946 E2.19640
G1 X68.158 Y130.712 E2.19934
G1 X68.158 Y109.288 E2.46713
G1 X68.181 Y109.054 E2.47007
G1 X68.245 Y108.846 E2.47279
G1 X68.347 Y108.654 E2.47551
G1 X68.486 Y108.486 E2.47823
G1 X68.654 Y108.347 E2.48095
G1 X68.846 Y108.245 E2.48368
G1 X69.054 Y108.181 E2.48640
G1 X69.288 Y108.158 E2.48934
G1 X90.012 Y108.158 E2.74838
G1 X89.974 Y109.036 F4800.000
G1 X90.964 Y110.027 F1200.000 E2.76593
G1 X90.964 Y111.000 F4800.000
G1 X89.000 Y109.036 F1200.000 E2.80075
G1 X88.026 Y109.036 F4800.000
G1 X90.964 Y111.974 F1200.000 E2.85284
G1 X90.964 Y112.948 F4800.000
G1 X87.052 Y109.036 F1200.000 E2.92219
G1 X86.078 Y109.036 F4800.000
G1 X90.964 Y113.922 F1200.000 E3.00880
G1 X90.964 Y114.896 F4800.000
G1 X85.104 Y109.036 F1200.000 E3.11269
G1 X84.131 Y109.036 F4800.000
G1 X90.964 Y115.869 F1200.000 E3.23383
G1 X90.964 Y116.843 F4800.000
G1 X83.157 Y109.036 F1200.000 E3.37225
G1 X82.183 Y109.036 F4800.000
G1 X90.964 Y117.817 F1200.000 E3.52792
G1 X90.964 Y118.791 F4800.000
G1 X81.209 Y109.036 F1200.000 E3.70087
G1 X80.235 Y109.036 F4800.000
G1 X90.964 Y119.765 F1200.000 E3.89108
G1 X90.964 Y120.738 F4800.000
G1 X79.261 Y109.036 F1200.000 E4.09855
G1 X78.288 Y109.036 F4800.000
G1 X90.964 Y121.712 F1200.000 E4.32329
G1 X90.964 Y122.686 F4800.000
G1 X77.314 Y109.036 F1200.000 E4.56530
G1 X76.340 Y109.036 F4800.000
G1 X90.964 Y123.660 F1200.000 E4.82457
G1 X90.964 Y124.634 F4800.000
G1 X75.366 Y109.036 F1200.000 E5.10110
G1 X74.392 Y109.036 F4800.000
G1 X90.964 Y125.608 F1200.000 E5.39491
G1 X90.964 Y126.581 F4800.000
G1 X73.419 Y109.036 F1200.000 E5.70597
G1 X72.445 Y109.036 F4800.000
G1 X90.964 Y127.555 F1200.000 E6.03431
G1 X90.964 Y128.529 F4800.000
G1 X71.471 Y109.036 F1200.000 E6.37991
G1 X70.497 Y109.036 F4800.000
G1 X90.964 Y129.503 F1200.000 E6.74277
G1 X90.964 Y130.477 F4800.000
G1 X69.523 Y109.036 F1200.000 E7.12290
G1 X69.036 Y109.523 F4800.000
G1 X90.477 Y130.964 F1200.000 E7.50303
G1 X89.503 Y130.964 F4800.000
G1 X69.036 Y110.497 F1200.000 E7.86589
G1 X69.036 Y111.471 F4800.000
G1 X88.529 Y130.964 F1200.000 E8.21149
G1 X87.555 Y130.964 F4800.000
G1 X69.036 Y112.445 F1200.000 E8.53983
G1 X69.036 Y113.419 F4800.000
G1 X86.581 Y130.964 F1200.000 E8.85089
G1 X85.608 Y130.964 F4800.000
G1 X69.036 Y114.392 F1200.000 E9.14470
G1 X69.036 Y115.366 F4800.000
G1 X84.634 Y130.964 F1200.000 E9.42123
G1 X83.660 Y130.964 F4800.000
G1 X69.036 Y116.340 F1200.000 E9.68050
G1 X69.036 Y117.314 F4800.000
G1 X82.686 Y130.964 F1200.000 E9.92251
G1 X81.712 Y130.964 F4800.000
G1 X69.036 Y118.288 F1200.000 E10.14725
G1 X69.036 Y119.261 F4800.000
G1 X80.738 Y130.964 F1200.000 E10.35473
G1 X79.765 Y130.964 F4800.000
G1 X69.036 Y120.235 F1200.000 E10.54493
G1 X69.036 Y121.209 F4800.000
G1 X78.791 Y130.964 F1200.000 E10.71788
G1 X77.817 Y130.964 F4800.000
G1 X69.036 Y122.183 F1200.000 E10.87356
G1 X69.036 Y123.157 F4800.000
G1 X76.843 Y130.964 F1200.000 E11.01197
G1 X75.869 Y130.964 F4800.000
G1 X69.036 Y124.131 F1200.000 E11.13312
G1 X69.036 Y125.104 F4800.000
G1 X74.896 Y130.964 F1200.000 E11.23700
G1 X73.922 Y130.964 F4800.000
G1 X69.036 Y126.078 F1200.000 E11.32362
G1 X69.036 Y127.052 F4800.000
G1 X72.948 Y130.964 F1200.000 E11.39297
G1 X71.974 Y130.964 F4800.000
G1 X69.036 Y128.026 F1200.000 E11.44506
G1 X69.036 Y129.000 F4800.000
G1 X71.000 Y130.964 F1200.000 E11.47988
G1 X70.027 Y130.964 F4800.000
G1 X69.036 Y129.973 F1200.000 E11.49743
M104 S180 ; set temperature
G1 F600.000 E10.99743
G92 E0
G1 Z0.375 F4800.000
G1 X69.187 Y108.850
G1 F600.000 E0.50000
G1 X69.321 Y108.837 F3000.000 E0.50329
G1 X90.679 Y108.837 E1.02443
G1 X90.813 Y108.850 E1.02772
G1 X90.893 Y108.875 E1.02977
G1 X90.967 Y108.914 E1.03182
G1 X91.032 Y108.968 E1.03388
G1 X91.086 Y109.033 E1.03593
G1 X91.125 Y109.107 E1.03798
G1 X91.150 Y109.187 E1.04004
G1 X91.163 Y109.321 E1.04332
G1 X91.163 Y130.679 E1.56447
G1 X91.150 Y130.813 E1.56775
G1 X91.125 Y130.893 E1.56981
G1 X91.086 Y130.967 E1.57186
G1 X91.032 Y131.032 E1.57391
G1 X90.967 Y131.086 E1.57597
G1 X90.893 Y131.125 E1.57802
G1 X90.813 Y131.150 E1.58008
G1 X90.679 Y131.163 E1.58336
G1 X69.321 Y131.163 E2.10450
G1 X69.187 Y131.150 E2.10779
G1 X69.107 Y131.125 E2.10985
G1 X69.033 Y131.086 E2.11190
G1 X68.968 Y131.032 E2.11395
G1 X68.914 Y130.967 E2.11601
G1 X68.875 Y130.893 E2.11806
G1 X68.850 Y130.813 E2.12011
G1 X68.837 Y130.679 E2.12340
G1 X68.837 Y109.382 E2.64307
G1 X68.158 Y109.288 F4800.000
G1 X68.181 Y109.054 F3000.000 E2.64880
G1 X68.245 Y108.846 E2.65412
G1 X68.347 Y108.654 E2.65943
G1 X68.486 Y108.486 E2.66474
G1 X68.654 Y108.347 E2.67006
G1 X68.846 Y108.245 E2.67537
G1 X69.054 Y108.181 E2.68068
G1 X69.288 Y108.158 E2.68642
G1 X90.712 Y108.158 E3.20919
G1 X90.946 Y108.181 E3.21492
G1 X91.154 Y108.245 E3.22024
G1 X91.346 Y108.347 E3.22555
G1 X91.514 Y108.486 E3.23086
G1 X91.653 Y108.654 E3.23618
G1 X91.755 Y108.846 E3.24149
G1 X91.819 Y109.054 E3.24680
G1 X91.842 Y109.288 E3.25254
G1 X91.842 Y130.712 E3.77531
G1 X91.819 Y130.946 E3.78105
G1 X91.755 Y131.154 E3.78636
G1 X91.653 Y131.346 E3.79167
G1 X91.514 Y131.514 E3.79699
G1 X91.346 Y131.653 E3.80230
G1 X91.154 Y131.755 E3.80761
G1 X90.946 Y131.819 E3.81293
G1 X90.712 Y131.842 E3.81866
G1 X69.288 Y131.842 E4.34143
G1 X69.054 Y131.819 E4.34717
G1 X68.846 Y131.755 E4.35248
G1 X68.654 Y131.653 E4.35779
G1 X68.486 Y131.514 E4.36311
G1 X68.347 Y131.346 E4.36842
G1 X68.245 Y131.154 E4.37373
G1 X68.181 Y130.946 E4.37905
G1 X68.158 Y130.712 E4.38478
G1 X68.158 Y109.988 E4.89048
G1 X69.020 Y110.010 F4800.000
G1 X70.010 Y109.020 F3000.000 E4.92515
G1 X70.986 Y109.020 F4800.000
G1 X69.020 Y110.986 F3000.000 E4.99398
G1 X69.020 Y111.961 F4800.000
G1 X71.961 Y109.020 F3000.000 E5.09697
G1 X72.936 Y109.020 F4800.000
G1 X69.020 Y112.936 F3000.000 E5.23412
G1 X69.020 Y113.912 F4800.000
G1 X73.912 Y109.020 F3000.000 E5.40543
G1 X74.887 Y109.020 F4800.000
G1 X69.020 Y114.887 F3000.000 E5.61089
G1 X69.020 Y115.862 F4800.000
G1 X75.862 Y109.020 F3000.000 E5.85051
G1 X76.838 Y109.020 F4800.000
G1 X69.020 Y116.838 F3000.000 E6.12429
G1 X69.020 Y117.813 F4800.000
G1 X77.813 Y109.020 F3000.000 E6.43223
G1 X78.788 Y109.020 F4800.000
G1 X69.020 Y118.788 F3000.000 E6.77432
G1 X69.020 Y119.764 F4800.000
G1 X79.764 Y109.020 F3000.000 E7.15058
G1 X80.739 Y109.020 F4800.000
G1 X69.020 Y120.739 F3000.000 E7.56099
G1 X69.020 Y121.714 F4800.000
G1 X81.714 Y109.020 F3000.000 E8.00556
G1 X82.690 Y109.020 F4800.000
G1 X69.020 Y122.689 F3000.000 E8.48428
G1 X69.020 Y123.665 F4800.000
G1 X83.665 Y109.020 F3000.000 E8.99716
G1 X84.640 Y109.020 F4800.000
G1 X69.020 Y124.640 F3000.000 E9.54421
G1 X69.020 Y125.615 F4800.000
G1 X85.615 Y109.020 F3000.000 E10.12541
G1 X86.591 Y109.020 F4800.000
G1 X69.020 Y126.591 F3000.000 E10.74076
G1 X69.020 Y127.566 F4800.000
G1 X87.566 Y109.020 F3000.000 E11.39028
G1 X88.541 Y109.020 F4800.000
G1 X69.020 Y128.541 F3000.000 E12.07395
G1 X69.020 Y129.517 F4800.000
G1 X89.517 Y109.020 F3000.000 E12.79178
G1 X90.492 Y109.020 F4800.000
G1 X69.020 Y130.492 F3000.000 E13.54377
G1 X69.508 Y130.980 F4800.000
G1 X90.980 Y109.508 F3000.000 E14.29576
G1 X90.980 Y110.483 F4800.000
G1 X70.483 Y130.980 F3000.000 E15.01359
G1 X71.459 Y130.980 F4800.000
G1 X90.980 Y111.459 F3000.000 E15.69726
G1 X90.980 Y112.434 F4800.000
G1 X72.434 Y130.980 F3000.000 E16.34678
G1 X73.409 Y130.980 F4800.000
G1 X90.980 Y113.409 F3000.000 E16.96214
G1 X90.980 Y114.385 F4800.000
G1 X74.385 Y130.980 F3000.000 E17.54334
G1 X75.360 Y130.980 F4800.000
G1 X90.980 Y115.360 F3000.000 E18.09038
G1 X90.980 Y116.335 F4800.000
G1 X76.335 Y130.980 F3000.000 E18.60327
G1 X77.310 Y130.980 F4800.000
G1 X90.980 Y117.311 F3000.000 E19.08199
G1 X90.980 Y118.286 F4800.000
G1 X78.286 Y130.980 F3000.000 E19.52656
G1 X79.261 Y130.980 F4800.000
G1 X90.980 Y119.261 F3000.000 E19.93697
G1 X90.980 Y120.236 F4800.000
G1 X80.236 Y130.980 F3000.000 E20.31323
G1 X81.212 Y130.980 F4800.000
G1 X90.980 Y121.212 F3000.000 E20.65532
G1 X90.980 Y122.187 F4800.000
G1 X82.187 Y130.980 F3000.000 E20.96326
G1 X83.162 Y130.980 F4800.000
G1 X90.980 Y123.162 F3000.000 E21.23704
G1 X90.980 Y124.138 F4800.000
G1 X84.138 Y130.980 F3000.000 E21.47667
G1 X85.113 Y130.980 F4800.000
G1 X90.980 Y125.113 F3000.000 E21.68213
G1 X90.980 Y126.088 F4800.000
G1 X86.088 Y130.980 F3000.000 E21.85344
G1 X87.064 Y130.980 F4800.000
G1 X90.980 Y127.064 F3000.000 E21.99059
G1 X90.980 Y128.039 F4800.000
G1 X88.039 Y130.980 F3000.000 E22.09358
G1 X89.014 Y130.980 F4800.000
G1 X90.980 Y129.014 F3000.000 E22.16242
G1 X90.980 Y129.990 F4800.000
G1 X89.990 Y130.980 F3000.000 E22.19710
G1 F600.000 E21.69710
G92 E0
G1 Z0.625 F4800.000
G1 X69.321 Y131.163
G1 F600.000 E0.50000
G1 X69.187 Y131.150 F3000.000 E0.50329
G1 X69.107 Y131.125 E0.50534
G1 X69.033 Y131.086 E0.50739
G1 X68.968 Y131.032 E0.50945
G1 X68.914 Y130.967 E0.51150
G1 X68.875 Y130.893 E0.51355
G1 X68.850 Y130.813 E0.51561
G1 X68.837 Y130.679 E0.51889
G1 X68.837 Y109.321 E1.04004
G1 X68.850 Y109.187 E1.04332
G1 X68.875 Y109.107 E1.04538
G1 X68.914 Y109.033 E1.04743
G1 X68.968 Y108.968 E1.04948
G1 X69.033 Y108.914 E1.05154
G1 X69.107 Y108.875 E1.05359
G1 X69.187 Y108.850 E1.05565
G1 X69.321 Y108.837 E1.05893
G1 X90.679 Y108.837 E1.58008
G1 X90.813 Y108.850 E1.58336
G1 X90.893 Y108.875 E1.58542
