; generated by Slic3r 0.9.3 on 2012-11-17 at 23:38:24

; layer_height = 0.25
; perimeters = 2
; solid_layers = 3
; fill_density = .3
; perimeter_speed = 50
; infill_speed = 50
; travel_speed = 80
; scale = 1
; nozzle_diameter = 0.5
; filament_diameter = 3.0
; extrusion_multiplier = 1.05
; single wall width = 0.70mm

M107
M190 S65 ; wait for bed temperature to be reached
M104 S188 ; set temperature
G28 ; home all
M140 S75 ; turn on bed
M109 S188 ; wait for temperature to be reached
G90 ; use absolute coordinates
G21 ; set units to millimeters
G92 E0
M82 ; use absolute distances for extrusion
G1 F600.000 E-0.50000
G92 E0
G1 Z0.125 F4800.000
G1 X56.740 Y96.900
G1 F600.000 E0.50000
G1 X57.060 Y96.590 F1200.000 E0.50550
G1 X57.230 Y96.450 E0.50822
G1 X57.410 Y96.320 E0.51096
G1 X57.790 Y96.090 E0.51645
G1 X57.980 Y95.990 E0.51910
G1 X58.390 Y95.810 E0.52463
G1 X58.810 Y95.680 E0.53006
G1 X59.020 Y95.630 E0.53273
G1 X59.240 Y95.590 E0.53549
G1 X59.900 Y95.540 E0.54366
G1 X100.310 Y95.550 E1.04273
G1 X100.750 Y95.590 E1.04819
G1 X100.970 Y95.630 E1.05095
G1 X101.390 Y95.740 E1.05631
G1 X101.600 Y95.810 E1.05905
G1 X102.010 Y95.990 E1.06458
G1 X102.390 Y96.200 E1.06994
G1 X102.580 Y96.320 E1.07271
G1 X102.760 Y96.450 E1.07546
G1 X102.930 Y96.590 E1.07818
G1 X103.400 Y97.060 E1.08638
G1 X103.540 Y97.230 E1.08910
G1 X103.670 Y97.410 E1.09185
G1 X103.900 Y97.790 E1.09733
G1 X104.000 Y97.980 E1.09998
G1 X104.180 Y98.390 E1.10551
G1 X104.310 Y98.810 E1.11094
G1 X104.360 Y99.020 E1.11361
G1 X104.400 Y99.240 E1.11637
G1 X104.450 Y99.900 E1.12455
G1 X104.440 Y140.310 E1.62362
G1 X104.400 Y140.750 E1.62907
G1 X104.360 Y140.970 E1.63183
G1 X104.250 Y141.390 E1.63720
G1 X104.180 Y141.600 E1.63993
G1 X104.000 Y142.010 E1.64546
G1 X103.790 Y142.390 E1.65082
G1 X103.670 Y142.580 E1.65360
G1 X103.540 Y142.760 E1.65634
G1 X103.400 Y142.930 E1.65906
G1 X102.930 Y143.400 E1.66727
G1 X102.760 Y143.540 E1.66999
G1 X102.580 Y143.670 E1.67273
G1 X102.200 Y143.900 E1.67821
G1 X102.010 Y144.000 E1.68087
G1 X101.600 Y144.180 E1.68640
G1 X101.180 Y144.310 E1.69183
G1 X100.970 Y144.360 E1.69449
G1 X100.750 Y144.400 E1.69725
G1 X100.090 Y144.450 E1.70543
G1 X59.680 Y144.440 E2.20450
G1 X59.240 Y144.400 E2.20995
G1 X59.020 Y144.360 E2.21272
G1 X58.600 Y144.250 E2.21808
G1 X58.390 Y144.180 E2.22081
G1 X57.980 Y144.000 E2.22634
G1 X57.600 Y143.790 E2.23170
G1 X57.410 Y143.670 E2.23448
G1 X57.230 Y143.540 E2.23722
G1 X57.060 Y143.400 E2.23994
G1 X56.590 Y142.930 E2.24815
G1 X56.450 Y142.760 E2.25087
G1 X56.320 Y142.580 E2.25361
G1 X56.090 Y142.200 E2.25910
G1 X55.990 Y142.010 E2.26175
G1 X55.810 Y141.600 E2.26728
G1 X55.680 Y141.180 E2.27271
G1 X55.630 Y140.970 E2.27538
G1 X55.590 Y140.750 E2.27814
G1 X55.540 Y140.090 E2.28631
G1 X55.550 Y99.680 E2.78538
G1 X55.590 Y99.240 E2.79084
G1 X55.630 Y99.020 E2.79360
G1 X55.740 Y98.600 E2.79896
G1 X55.810 Y98.390 E2.80169
G1 X55.990 Y97.980 E2.80722
G1 X56.200 Y97.600 E2.81259
G1 X56.299 Y97.442 E2.81489
G1 X56.860 Y97.840 F4800.000
G1 X56.970 Y97.670 F1200.000 E2.81739
G1 X57.230 Y97.370 E2.82229
G1 X57.370 Y97.230 E2.82474
G1 X57.670 Y96.970 E2.82964
G1 X58.000 Y96.750 E2.83454
G1 X58.360 Y96.560 E2.83956
G1 X58.540 Y96.480 E2.84200
G1 X58.730 Y96.410 E2.84450
G1 X59.300 Y96.270 E2.85175
G1 X59.500 Y96.240 E2.85424
G1 X59.900 Y96.220 E2.85919
G1 X100.490 Y96.240 E3.36048
G1 X100.690 Y96.270 E3.36298
G1 X101.260 Y96.410 E3.37023
G1 X101.450 Y96.480 E3.37273
G1 X101.810 Y96.650 E3.37765
G1 X101.990 Y96.750 E3.38019
G1 X102.320 Y96.970 E3.38509
G1 X102.620 Y97.230 E3.38999
G1 X102.760 Y97.370 E3.39244
G1 X103.020 Y97.670 E3.39734
G1 X103.240 Y98.000 E3.40224
G1 X103.430 Y98.360 E3.40726
G1 X103.510 Y98.540 E3.40970
G1 X103.580 Y98.730 E3.41220
G1 X103.720 Y99.300 E3.41945
G1 X103.750 Y99.500 E3.42194
G1 X103.750 Y140.490 E3.92818
G1 X103.720 Y140.690 E3.93067
G1 X103.580 Y141.260 E3.93792
G1 X103.510 Y141.450 E3.94042
G1 X103.340 Y141.810 E3.94534
G1 X103.240 Y141.990 E3.94788
G1 X103.020 Y142.320 E3.95278
G1 X102.760 Y142.620 E3.95768
G1 X102.620 Y142.760 E3.96013
G1 X102.320 Y143.020 E3.96503
G1 X101.990 Y143.240 E3.96993
G1 X101.630 Y143.430 E3.97496
G1 X101.450 Y143.510 E3.97739
G1 X101.260 Y143.580 E3.97989
G1 X100.690 Y143.720 E3.98714
G1 X100.490 Y143.750 E3.98964
G1 X100.090 Y143.770 E3.99458
G1 X59.500 Y143.750 E4.49588
G1 X59.300 Y143.720 E4.49837
G1 X58.730 Y143.580 E4.50562
G1 X58.540 Y143.510 E4.50812
G1 X58.180 Y143.340 E4.51304
G1 X58.000 Y143.240 E4.51558
G1 X57.670 Y143.020 E4.52048
G1 X57.370 Y142.760 E4.52538
G1 X57.230 Y142.620 E4.52783
G1 X56.970 Y142.320 E4.53273
G1 X56.750 Y141.990 E4.53763
G1 X56.560 Y141.630 E4.54266
G1 X56.480 Y141.450 E4.54509
G1 X56.410 Y141.260 E4.54759
G1 X56.270 Y140.690 E4.55484
G1 X56.240 Y140.490 E4.55734
G1 X56.240 Y99.500 E5.06357
G1 X56.270 Y99.300 E5.06607
G1 X56.410 Y98.730 E5.07331
G1 X56.480 Y98.540 E5.07582
G1 X56.520 Y98.450 E5.07703
G1 F600.000 E4.57703
G92 E0
G1 X95.382 Y134.546 F4800.000
G1 F600.000 E0.50000
G1 X95.788 Y134.236 F1200.000 E0.50638
G1 X96.259 Y134.041 E0.51275
G1 X96.764 Y133.975 E0.51912
G1 X97.269 Y134.041 E0.52549
G1 X97.740 Y134.236 E0.53187
G1 X98.146 Y134.546 E0.53824
G1 X98.456 Y134.952 E0.54462
G1 X98.651 Y135.423 E0.55100
G1 X98.717 Y135.928 E0.55737
G1 X98.651 Y136.433 E0.56374
G1 X98.456 Y136.905 E0.57012
G1 X98.145 Y137.308 E0.57648
G1 X97.740 Y137.618 E0.58285
G1 X97.270 Y137.813 E0.58921
G1 X96.764 Y137.881 E0.59560
G1 X96.258 Y137.813 E0.60198
G1 X95.788 Y137.618 E0.60834
G1 X95.383 Y137.308 E0.61471
G1 X95.072 Y136.905 E0.62107
G1 X94.877 Y136.433 E0.62746
G1 X94.811 Y135.928 E0.63382
G1 X94.877 Y135.423 E0.64019
G1 X95.000 Y135.127 E0.64420
G1 F600.000 E0.14420
G92 E0
G1 X96.820 Y104.989 F4800.000
G1 F600.000 E0.50000
G1 X96.315 Y104.923 F1200.000 E0.50637
G1 X95.844 Y104.728 E0.51274
G1 X95.438 Y104.418 E0.51912
G1 X95.128 Y104.012 E0.52550
G1 X94.933 Y103.541 E0.53188
G1 X94.867 Y103.036 E0.53824
G1 X94.933 Y102.531 E0.54461
G1 X95.128 Y102.060 E0.55099
G1 X95.438 Y101.654 E0.55737
G1 X95.844 Y101.344 E0.56375
G1 X96.315 Y101.149 E0.57012
G1 X96.820 Y101.083 E0.57649
G1 X97.325 Y101.149 E0.58286
G1 X97.797 Y101.344 E0.58924
G1 X98.199 Y101.654 E0.59559
G1 X98.512 Y102.060 E0.60199
G1 X98.705 Y102.531 E0.60835
G1 X98.773 Y103.036 E0.61472
G1 X98.705 Y103.541 E0.62110
G1 X98.512 Y104.012 E0.62746
G1 X98.199 Y104.418 E0.63386
G1 X97.797 Y104.728 E0.64021
G1 X97.501 Y104.850 E0.64421
G1 F600.000 E0.14421
G92 E0
G1 X65.417 Y103.036 F4800.000
G1 F600.000 E0.50000
G1 X65.351 Y103.541 F1200.000 E0.50637
G1 X65.156 Y104.012 E0.51274
G1 X64.846 Y104.418 E0.51912
G1 X64.440 Y104.728 E0.52550
G1 X63.969 Y104.923 E0.53188
G1 X63.464 Y104.989 E0.53824
G1 X62.959 Y104.923 E0.54461
G1 X62.487 Y104.728 E0.55099
G1 X62.085 Y104.418 E0.55735
G1 X61.772 Y104.013 E0.56373
G1 X61.577 Y103.541 E0.57012
G1 X61.511 Y103.036 E0.57648
G1 X61.577 Y102.531 E0.58285
G1 X61.772 Y102.059 E0.58924
G1 X62.085 Y101.654 E0.59562
G1 X62.487 Y101.344 E0.60198
G1 X62.959 Y101.149 E0.60836
G1 X63.464 Y101.083 E0.61473
G1 X63.969 Y101.149 E0.62109
G1 X64.440 Y101.344 E0.62747
G1 X64.846 Y101.654 E0.63385
G1 X65.156 Y102.060 E0.64023
G1 X65.278 Y102.355 E0.64422
G1 F600.000 E0.14422
G92 E0
G1 X63.464 Y134.361 F4800.000
G1 F600.000 E0.50000
G1 X63.969 Y134.427 F1200.000 E0.50637
G1 X64.440 Y134.622 E0.51274
G1 X64.846 Y134.932 E0.51912
G1 X65.156 Y135.338 E0.52550
G1 X65.351 Y135.809 E0.53188
G1 X65.417 Y136.314 E0.53824
G1 X65.351 Y136.819 E0.54461
G1 X65.156 Y137.290 E0.55099
G1 X64.846 Y137.696 E0.55737
G1 X64.440 Y138.006 E0.56375
G1 X63.969 Y138.201 E0.57012
G1 X63.464 Y138.267 E0.57649
G1 X62.959 Y138.201 E0.58286
G1 X62.487 Y138.006 E0.58924
G1 X62.085 Y137.696 E0.59559
G1 X61.772 Y137.291 E0.60198
G1 X61.577 Y136.819 E0.60836
G1 X61.511 Y136.314 E0.61473
G1 X61.577 Y135.809 E0.62110
G1 X61.772 Y135.337 E0.62748
G1 X62.085 Y134.932 E0.63387
G1 X62.487 Y134.622 E0.64022
G1 X62.783 Y134.500 E0.64422
G1 F600.000 E0.14422
G92 E0
G1 X60.902 Y137.286 F4800.000
G1 F600.000 E0.50000
G1 X61.595 Y138.185 F1200.000 E0.51420
G1 X62.140 Y138.605 E0.52280
G1 X63.018 Y138.969 E0.53467
G1 X62.929 Y139.413 E0.54033
G1 X60.587 Y139.413 E0.56962
G1 X60.587 Y137.761 E0.59028
G1 F600.000 E0.09028
G92 E0
G1 X99.413 Y104.484 F4800.000
G1 F600.000 E0.50000
G1 X99.413 Y134.552 F1200.000 E0.87584
G1 X99.097 Y134.659 E0.88002
G1 X98.635 Y134.057 E0.88951
G1 X98.086 Y133.636 E0.89815
G1 X97.448 Y133.372 E0.90679
G1 X96.764 Y133.283 E0.91541
G1 X96.080 Y133.372 E0.92403
G1 X95.442 Y133.636 E0.93267
G1 X94.893 Y134.057 E0.94131
G1 X94.472 Y134.606 E0.94996
G1 X94.208 Y135.244 E0.95859
G1 X94.119 Y135.928 E0.96721
G1 X94.208 Y136.612 E0.97584
G1 X94.473 Y137.252 E0.98449
G1 X94.894 Y137.798 E0.99311
G1 X95.442 Y138.218 E1.00174
G1 X96.078 Y138.481 E1.01034
G1 X96.764 Y138.574 E1.01900
G1 X97.450 Y138.481 E1.02766
G1 X98.086 Y138.218 E1.03626
G1 X98.634 Y137.798 E1.04489
G1 X99.098 Y137.196 E1.05439
G1 X99.413 Y137.303 E1.05855
G1 X99.413 Y139.413 E1.08493
G1 X63.999 Y139.413 E1.52760
G1 X63.910 Y138.969 E1.53326
G1 X64.786 Y138.606 E1.54512
G1 X65.335 Y138.185 E1.55376
G1 X65.756 Y137.636 E1.56240
G1 X66.020 Y136.998 E1.57104
G1 X66.109 Y136.314 E1.57966
G1 X66.020 Y135.630 E1.58829
G1 X65.756 Y134.992 E1.59692
G1 X65.335 Y134.443 E1.60556
G1 X64.786 Y134.022 E1.61421
G1 X64.148 Y133.758 E1.62284
G1 X63.464 Y133.669 E1.63146
G1 X62.780 Y133.758 E1.64009
G1 X62.140 Y134.023 E1.64874
G1 X61.595 Y134.443 E1.65734
G1 X60.902 Y135.342 E1.67154
G1 X60.587 Y135.235 E1.67570
G1 X60.587 Y104.115 E2.06467
G1 X60.902 Y104.008 E2.06883
G1 X61.595 Y104.907 E2.08303
G1 X62.140 Y105.327 E2.09163
G1 X62.780 Y105.592 E2.10028
G1 X63.464 Y105.681 E2.10891
G1 X64.148 Y105.592 E2.11753
G1 X64.786 Y105.328 E2.12616
G1 X65.335 Y104.907 E2.13481
G1 X65.756 Y104.358 E2.14345
G1 X66.020 Y103.720 E2.15209
G1 X66.109 Y103.036 E2.16071
G1 X66.020 Y102.352 E2.16933
G1 X65.756 Y101.714 E2.17797
G1 X65.056 Y100.800 E2.19235
G1 X65.162 Y100.587 E2.19532
G1 X95.122 Y100.587 E2.56982
G1 X95.228 Y100.800 E2.57279
G1 X94.528 Y101.714 E2.58718
G1 X94.264 Y102.352 E2.59581
G1 X94.175 Y103.036 E2.60444
G1 X94.264 Y103.720 E2.61306
G1 X94.528 Y104.358 E2.62170
G1 X94.949 Y104.907 E2.63034
G1 X95.498 Y105.328 E2.63898
G1 X96.136 Y105.592 E2.64762
G1 X96.820 Y105.681 E2.65624
G1 X97.504 Y105.592 E2.66487
G1 X98.144 Y105.327 E2.67352
G1 X98.689 Y104.907 E2.68212
G1 X98.874 Y104.667 E2.68591
G1 F600.000 E2.18591
G92 E0
G1 X61.876 Y100.801 F4800.000
G1 F600.000 E0.50000
G1 X60.902 Y102.064 F1200.000 E0.51994
G1 X60.587 Y101.957 E0.52410
G1 X60.587 Y100.587 E0.54122
G1 X61.309 Y100.587 E0.55025
G1 F600.000 E0.05025
G92 E0
G1 X98.408 Y100.801 F4800.000
G1 F600.000 E0.50000
G1 X98.514 Y100.587 F1200.000 E0.50299
G1 X99.413 Y100.587 E0.51423
G1 X99.413 Y101.588 E0.52675
G1 X99.098 Y101.696 E0.53091
G1 X98.836 Y101.355 E0.53628
G1 X100.100 Y99.900 F4800.000
G1 X100.100 Y140.100 F1200.000 E1.03877
G1 X59.900 Y140.100 E1.54125
G1 X59.900 Y99.900 E2.04373
G1 X99.400 Y99.900 E2.53746
G1 F600.000 E2.03746
G92 E0
G1 X98.232 Y105.333 F4800.000
G1 F600.000 E0.50000
G1 X99.222 Y106.323 F1200.000 E0.51764
G1 X99.222 Y107.302 F4800.000
G1 X97.540 Y105.620 F1200.000 E0.54762
G1 X96.763 Y105.821 F4800.000
G1 X99.222 Y108.281 F1200.000 E0.59144
G1 X99.222 Y109.259 F4800.000
G1 X95.769 Y105.806 F1200.000 E0.65298
G1 F600.000 E0.15298
G92 E0
G1 X94.050 Y104.087 F4800.000
G1 F600.000 E0.50000
G1 X90.741 Y100.778 F1200.000 E0.55898
G1 X89.762 Y100.778 F4800.000
G1 X99.222 Y110.238 F1200.000 E0.72755
G1 X99.222 Y111.217 F4800.000
G1 X88.783 Y100.778 F1200.000 E0.91357
G1 X87.804 Y100.778 F4800.000
G1 X99.222 Y112.196 F1200.000 E1.11703
G1 X99.222 Y113.175 F4800.000
G1 X86.825 Y100.778 F1200.000 E1.33793
G1 X85.847 Y100.778 F4800.000
G1 X99.222 Y114.153 F1200.000 E1.57627
G1 X99.222 Y115.132 F4800.000
G1 X84.868 Y100.778 F1200.000 E1.83205
G1 X83.890 Y100.778 F4800.000
G1 X99.222 Y116.110 F1200.000 E2.10527
G1 X99.222 Y117.089 F4800.000
G1 X82.911 Y100.778 F1200.000 E2.39593
G1 X81.932 Y100.778 F4800.000
G1 X99.222 Y118.068 F1200.000 E2.70403
G1 X99.222 Y119.046 F4800.000
G1 X80.954 Y100.778 F1200.000 E3.02957
G1 X79.975 Y100.778 F4800.000
G1 X99.222 Y120.025 F1200.000 E3.37254
G1 X99.222 Y121.004 F4800.000
G1 X78.996 Y100.778 F1200.000 E3.73296
G1 X78.018 Y100.778 F4800.000
G1 X99.222 Y121.982 F1200.000 E4.11082
G1 X99.222 Y122.961 F4800.000
G1 X77.039 Y100.778 F1200.000 E4.50612
G1 X76.060 Y100.778 F4800.000
G1 X99.222 Y123.940 F1200.000 E4.91885
G1 X99.222 Y124.918 F4800.000
G1 X75.082 Y100.778 F1200.000 E5.34903
G1 X74.103 Y100.778 F4800.000
G1 X99.222 Y125.897 F1200.000 E5.79665
G1 X99.222 Y126.876 F4800.000
G1 X73.124 Y100.778 F1200.000 E6.26171
G1 X72.146 Y100.778 F4800.000
G1 X99.222 Y127.854 F1200.000 E6.74420
G1 X99.222 Y128.833 F4800.000
G1 X71.167 Y100.778 F1200.000 E7.24414
G1 X70.188 Y100.778 F4800.000
G1 X99.222 Y129.812 F1200.000 E7.76152
G1 X99.222 Y130.790 F4800.000
G1 X69.210 Y100.778 F1200.000 E8.29633
G1 X68.231 Y100.778 F4800.000
G1 X99.222 Y131.769 F1200.000 E8.84859
G1 X99.222 Y132.748 F4800.000
G1 X67.252 Y100.778 F1200.000 E9.41829
G1 X66.274 Y100.778 F4800.000
G1 X99.098 Y133.602 F1200.000 E10.00321
G1 X97.654 Y133.137 F4800.000
G1 X66.194 Y101.677 F1200.000 E10.56382
G1 X66.280 Y102.742 F4800.000
G1 X96.697 Y133.159 F1200.000 E11.10584
G1 X95.944 Y133.385 F4800.000
G1 X66.127 Y103.567 F1200.000 E11.63719
G1 X65.830 Y104.249 F4800.000
G1 X95.320 Y133.739 F1200.000 E12.16270
G1 X94.796 Y134.194 F4800.000
G1 X65.406 Y104.804 F1200.000 E12.68644
G1 X64.874 Y105.251 F4800.000
G1 X94.372 Y134.749 F1200.000 E13.21209
G1 X94.084 Y135.439 F4800.000
G1 X64.241 Y105.596 F1200.000 E13.74388
G1 X63.478 Y105.812 F4800.000
G1 X93.941 Y136.275 F1200.000 E14.28672
G1 X94.077 Y137.389 F4800.000
G1 X62.506 Y105.818 F1200.000 E14.84931
G1 X60.933 Y105.225 F4800.000
G1 X94.931 Y139.222 F1200.000 E15.45514
G1 X93.952 Y139.222 F4800.000
G1 X60.778 Y106.048 F1200.000 E16.04630
G1 X60.778 Y107.027 F4800.000
G1 X92.973 Y139.222 F1200.000 E16.62001
G1 X91.995 Y139.222 F4800.000
G1 X60.778 Y108.005 F1200.000 E17.17629
G1 X60.778 Y108.984 F4800.000
G1 X91.016 Y139.222 F1200.000 E17.71512
G1 X90.037 Y139.222 F4800.000
G1 X60.778 Y109.963 F1200.000 E18.23651
G1 X60.778 Y110.941 F4800.000
G1 X89.059 Y139.222 F1200.000 E18.74047
G1 X88.080 Y139.222 F4800.000
G1 X60.778 Y111.920 F1200.000 E19.22699
G1 X60.778 Y112.899 F4800.000
G1 X87.101 Y139.222 F1200.000 E19.69606
G1 X86.123 Y139.222 F4800.000
G1 X60.778 Y113.877 F1200.000 E20.14770
G1 X60.778 Y114.856 F4800.000
G1 X85.144 Y139.222 F1200.000 E20.58189
G1 X84.165 Y139.222 F4800.000
G1 X60.778 Y115.835 F1200.000 E20.99865
G1 X60.778 Y116.813 F4800.000
G1 X83.187 Y139.222 F1200.000 E21.39796
G1 X82.208 Y139.222 F4800.000
G1 X60.778 Y117.792 F1200.000 E21.77984
G1 X60.778 Y118.771 F4800.000
G1 X81.229 Y139.222 F1200.000 E22.14428
G1 X80.251 Y139.222 F4800.000
G1 X60.778 Y119.750 F1200.000 E22.49127
G1 X60.778 Y120.728 F4800.000
G1 X79.272 Y139.222 F1200.000 E22.82083
G1 X78.293 Y139.222 F4800.000
G1 X60.778 Y121.707 F1200.000 E23.13295
G1 X60.778 Y122.685 F4800.000
G1 X77.314 Y139.222 F1200.000 E23.42762
G1 X76.336 Y139.222 F4800.000
G1 X60.778 Y123.664 F1200.000 E23.70486
G1 X60.778 Y124.643 F4800.000
G1 X75.357 Y139.222 F1200.000 E23.96466
G1 X74.378 Y139.222 F4800.000
G1 X60.778 Y125.622 F1200.000 E24.20701
G1 X60.778 Y126.600 F4800.000
G1 X73.400 Y139.222 F1200.000 E24.43193
G1 X72.421 Y139.222 F4800.000
G1 X60.778 Y127.579 F1200.000 E24.63941
G1 X60.778 Y128.558 F4800.000
G1 X71.442 Y139.222 F1200.000 E24.82945
G1 X70.464 Y139.222 F4800.000
G1 X66.191 Y134.950 F1200.000 E24.90558
G1 X66.281 Y136.018 F4800.000
G1 X69.485 Y139.222 F1200.000 E24.96268
G1 X68.506 Y139.222 F4800.000
G1 X66.127 Y136.843 F1200.000 E25.00507
G1 X65.831 Y137.525 F4800.000
G1 X67.528 Y139.222 F1200.000 E25.03531
G1 X66.549 Y139.222 F4800.000
G1 X65.559 Y138.232 F1200.000 E25.05295
G1 F600.000 E24.55295
G92 E0
G1 X64.828 Y133.587 F4800.000
G1 F600.000 E0.50000
G1 X60.778 Y129.536 F1200.000 E0.57218
