; generated by Slic3r 0.9.7 on 2013-01-04 at 23:55:19

; layer_height = .1
; perimeters = 2
; top_solid_layers = 3
; bottom_solid_layers = 3
; fill_density = .3
; perimeter_speed = 10
; infill_speed = 10
; travel_speed = 100
; scale = 1
; nozzle_diameter = 0.4
; filament_diameter = 1
; extrusion_multiplier = 1
; perimeters extrusion width = 0.56mm
; infill extrusion width = 0.56mm
; first layer extrusion width = 0.56mm

M107
G28 ; home all
G90 ; use absolute coordinates
G21 ; set units to millimeters
G92 E0
M82 ; use absolute distances for extrusion
G1 Z0.100 F6000.000
G1 X55.048 Y54.212
G1 X55.552 Y53.827 F1200.000 E0.04348
G1 X56.137 Y53.584 E0.08690
G1 X56.764 Y53.503 E0.13028
G1 X57.391 Y53.584 E0.17366
G1 X57.976 Y53.827 E0.21708
G1 X58.480 Y54.212 E0.26056
G1 X58.865 Y54.716 E0.30403
G1 X59.368 Y55.928 E0.39402
G1 X58.865 Y57.141 E0.48409
G1 X58.479 Y57.643 E0.52746
G1 X57.976 Y58.027 E0.57085
G1 X57.393 Y58.269 E0.61414
G1 X56.764 Y58.354 E0.65767
G1 X56.135 Y58.269 E0.70120
G1 X55.552 Y58.027 E0.74449
G1 X55.049 Y57.643 E0.78788
G1 X54.663 Y57.141 E0.83125
G1 X54.420 Y56.555 E0.87475
G1 X54.339 Y55.928 E0.91813
G1 X54.420 Y55.301 E0.96151
G1 X54.663 Y54.716 E1.00494
G1 X54.999 Y54.276 E1.04287
G1 X55.048 Y54.212 E1.04841
G1 X55.432 Y54.596 F6000.000
G1 X55.823 Y54.297 F1200.000 E1.08214
G1 X56.277 Y54.109 E1.11584
G1 X56.764 Y54.046 E1.14952
G1 X57.251 Y54.109 E1.18319
G1 X57.705 Y54.297 E1.21690
G1 X58.096 Y54.596 E1.25063
G1 X58.395 Y54.987 E1.28436
G1 X58.583 Y55.441 E1.31806
G1 X58.646 Y55.928 E1.35174
G1 X58.583 Y56.415 E1.38541
G1 X58.394 Y56.869 E1.41914
G1 X58.095 Y57.258 E1.45276
G1 X57.705 Y57.557 E1.48646
G1 X57.252 Y57.745 E1.52012
G1 X56.764 Y57.811 E1.55386
G1 X56.276 Y57.745 E1.58760
G1 X55.823 Y57.557 E1.62126
G1 X55.433 Y57.258 E1.65496
G1 X55.134 Y56.869 E1.68858
G1 X54.945 Y56.415 E1.72231
G1 X54.882 Y55.928 E1.75599
G1 X54.945 Y55.441 E1.78966
G1 X55.133 Y54.987 E1.82337
G1 X55.383 Y54.660 E1.85156
G1 X55.432 Y54.596 E1.85710
G1 X56.820 Y25.461 F6000.000
G1 X56.193 Y25.380 F1200.000 E1.90047
G1 X55.608 Y25.137 E1.94390
G1 X55.104 Y24.752 E1.98737
G1 X54.719 Y24.248 E2.03085
G1 X54.476 Y23.663 E2.07427
G1 X54.395 Y23.036 E2.11765
G1 X54.476 Y22.409 E2.16103
G1 X54.719 Y21.824 E2.20445
G1 X55.104 Y21.320 E2.24793
G1 X55.608 Y20.935 E2.29140
G1 X56.820 Y20.432 E2.38139
G1 X58.033 Y20.935 E2.47146
G1 X58.533 Y21.320 E2.51472
G1 X58.922 Y21.824 E2.55832
G1 X59.418 Y23.036 E2.64814
G1 X58.922 Y24.248 E2.73797
G1 X58.533 Y24.752 E2.78157
G1 X58.033 Y25.137 E2.82483
G1 X57.447 Y25.380 E2.86833
G1 X56.900 Y25.451 E2.90617
G1 X56.820 Y25.461 E2.91171
G1 X56.820 Y24.918 F6000.000
G1 X56.333 Y24.855 F1200.000 E2.94539
G1 X55.879 Y24.667 E2.97909
G1 X55.488 Y24.368 E3.01282
G1 X55.189 Y23.977 E3.04655
G1 X55.001 Y23.523 E3.08026
G1 X54.938 Y23.036 E3.11393
G1 X55.001 Y22.549 E3.14761
G1 X55.189 Y22.095 E3.18131
G1 X55.488 Y21.704 E3.21504
G1 X55.879 Y21.405 E3.24877
G1 X56.333 Y21.217 E3.28247
G1 X56.820 Y21.154 E3.31615
G1 X57.307 Y21.217 E3.34982
G1 X57.761 Y21.406 E3.38355
G1 X58.150 Y21.704 E3.41714
G1 X58.451 Y22.095 E3.45097
G1 X58.637 Y22.549 E3.48461
G1 X58.703 Y23.036 E3.51830
G1 X58.637 Y23.523 E3.55200
G1 X58.451 Y23.977 E3.58564
G1 X58.150 Y24.368 E3.61947
G1 X57.761 Y24.666 E3.65306
G1 X57.307 Y24.855 E3.68679
G1 X56.900 Y24.908 E3.71492
G1 X56.820 Y24.918 E3.72046
G1 X25.889 Y23.036 F6000.000
G1 X25.808 Y23.663 F1200.000 E3.76384
G1 X25.565 Y24.248 E3.80726
G1 X25.180 Y24.752 E3.85074
G1 X24.676 Y25.137 E3.89421
G1 X24.091 Y25.380 E3.93764
G1 X23.464 Y25.461 E3.98102
G1 X22.837 Y25.380 E4.02440
G1 X22.251 Y25.137 E4.06790
G1 X21.751 Y24.752 E4.11116
G1 X21.363 Y24.250 E4.15464
G1 X21.120 Y23.663 E4.19817
G1 X21.039 Y23.036 E4.24155
G1 X21.120 Y22.409 E4.28493
G1 X21.363 Y21.822 E4.32846
G1 X21.751 Y21.320 E4.37193
G1 X22.251 Y20.935 E4.41519
G1 X23.464 Y20.432 E4.50526
G1 X24.676 Y20.935 E4.59525
G1 X25.180 Y21.320 E4.63873
G1 X25.565 Y21.824 E4.68220
G1 X25.808 Y22.409 E4.72562
G1 X25.879 Y22.956 E4.76346
G1 X25.889 Y23.036 E4.76900
G1 X25.346 Y23.036 F6000.000
G1 X25.283 Y23.523 F1200.000 E4.80268
G1 X25.095 Y23.977 E4.83638
G1 X24.796 Y24.368 E4.87011
G1 X24.405 Y24.667 E4.90384
G1 X23.951 Y24.855 E4.93755
G1 X23.464 Y24.918 E4.97122
G1 X22.977 Y24.855 E5.00489
G1 X22.523 Y24.666 E5.03863
G1 X22.134 Y24.368 E5.07221
G1 X21.834 Y23.978 E5.10600
G1 X21.645 Y23.523 E5.13974
G1 X21.582 Y23.036 E5.17341
G1 X21.645 Y22.549 E5.20709
G1 X21.834 Y22.094 E5.24083
G1 X22.134 Y21.704 E5.27461
G1 X22.523 Y21.406 E5.30820
G1 X22.977 Y21.217 E5.34193
G1 X23.464 Y21.154 E5.37560
G1 X23.951 Y21.217 E5.40928
G1 X24.405 Y21.405 E5.44298
G1 X24.796 Y21.704 E5.47671
G1 X25.095 Y22.095 E5.51044
G1 X25.283 Y22.549 E5.54415
G1 X25.336 Y22.956 E5.57228
G1 X25.346 Y23.036 E5.57782
G1 X23.464 Y53.889 F6000.000
G1 X24.091 Y53.970 F1200.000 E5.62120
G1 X24.676 Y54.213 E5.66462
G1 X25.180 Y54.598 E5.70810
G1 X25.565 Y55.102 E5.75157
G1 X25.808 Y55.687 E5.79500
G1 X25.889 Y56.314 E5.83837
G1 X25.808 Y56.941 E5.88175
G1 X25.565 Y57.526 E5.92518
G1 X25.180 Y58.030 E5.96865
G1 X24.676 Y58.415 E6.01213
G1 X24.091 Y58.658 E6.05555
G1 X23.464 Y58.739 E6.09893
G1 X22.837 Y58.658 E6.14231
G1 X22.251 Y58.415 E6.18582
G1 X21.751 Y58.030 E6.22907
G1 X21.363 Y57.528 E6.27255
G1 X21.120 Y56.941 E6.31608
G1 X21.039 Y56.314 E6.35946
G1 X21.120 Y55.687 E6.40284
G1 X21.363 Y55.100 E6.44637
G1 X21.751 Y54.598 E6.48985
G1 X22.251 Y54.213 E6.53310
G1 X22.837 Y53.970 E6.57661
G1 X23.384 Y53.899 E6.61445
G1 X23.464 Y53.889 E6.61999
G1 X23.464 Y54.432 F6000.000
G1 X23.951 Y54.495 F1200.000 E6.65366
G1 X24.405 Y54.683 E6.68737
G1 X24.796 Y54.982 E6.72110
G1 X25.095 Y55.373 E6.75483
G1 X25.283 Y55.827 E6.78853
G1 X25.346 Y56.314 E6.82221
G1 X25.283 Y56.801 E6.85588
G1 X25.095 Y57.255 E6.88959
G1 X24.796 Y57.646 E6.92332
G1 X24.405 Y57.945 E6.95705
G1 X23.951 Y58.133 E6.99075
G1 X23.464 Y58.196 E7.02442
G1 X22.977 Y58.133 E7.05810
G1 X22.523 Y57.944 E7.09183
G1 X22.134 Y57.646 E7.12542
G1 X21.834 Y57.256 E7.15920
G1 X21.645 Y56.801 E7.19294
G1 X21.582 Y56.314 E7.22662
G1 X21.645 Y55.827 E7.26029
G1 X21.834 Y55.372 E7.29403
G1 X22.134 Y54.982 E7.32782
G1 X22.523 Y54.684 E7.36140
G1 X22.977 Y54.495 E7.39513
G1 X23.384 Y54.442 E7.42327
G1 X23.464 Y54.432 E7.42881
G1 X20.369 Y20.369 F6000.000
G1 X59.631 Y20.369 F1200.000 E10.12103
G1 X59.631 Y59.631 E12.81325
G1 X20.369 Y59.631 E15.50547
G1 X20.369 Y20.449 E18.19215
G1 X20.369 Y20.369 E18.19769
G1 X19.830 Y19.830 F6000.000
G1 X60.170 Y19.830 F1200.000 E20.96376
G1 X60.170 Y60.170 E23.72984
G1 X19.830 Y60.170 E26.49591
G1 X19.830 Y19.911 E29.25645
G1 X19.830 Y19.830 E29.26198
G1 X20.304 Y19.008 F6000.000
G1 X21.079 Y59.264
G1 X20.736 Y58.921 F1200.000 E29.32056
G1 X22.077 Y58.921 E29.48258
G1 X22.420 Y59.264 E29.54121
G1 X20.876 Y57.542 F6000.000
G1 X20.680 Y57.347 F1200.000 E29.55196
G1 X20.875 Y55.542 F6000.000
G1 X20.680 Y55.347 F1200.000 E29.56538
G1 X21.034 Y55.159 E29.58487
G1 X20.839 Y54.964 E29.59828
G1 X22.999 Y59.177 F6000.000
G1 X22.804 Y58.981 F1200.000 E29.61218
G1 X23.429 Y59.047 E29.64379
G1 X23.701 Y59.320 E29.66321
G1 X23.923 Y58.982 E29.68353
G1 X24.118 Y59.177 E29.69739
G1 X24.848 Y59.264 F6000.000
G1 X24.505 Y58.922 F1200.000 E29.73100
G1 X24.941 Y58.588 E29.76905
G1 X25.618 Y59.264 E29.83536
G1 X26.388 Y59.264 E29.88870
G1 X25.377 Y58.254 E29.98771
G1 X25.715 Y57.822 E30.02572
G1 X27.157 Y59.264 E30.16711
G1 X27.927 Y59.264 E30.22046
G1 X25.989 Y57.326 E30.41045
G1 X26.182 Y56.749 E30.45258
G1 X28.697 Y59.264 E30.69907
G1 X29.467 Y59.264 E30.75242
G1 X26.249 Y56.046 E31.06783
G1 X26.029 Y55.057 E31.13804
G1 X30.236 Y59.264 E31.55039
G1 X31.006 Y59.264 E31.60373
G1 X20.736 Y48.994 E32.61035
G1 X20.736 Y49.763 E32.66369
G1 X24.721 Y53.749 E33.05429
G1 X23.732 Y53.529 E33.12450
G1 X20.736 Y50.533 E33.41815
G1 X20.736 Y51.303 E33.47150
G1 X23.029 Y53.596 E33.69624
G1 X22.452 Y53.789 E33.73838
G1 X20.736 Y52.073 E33.90662
G1 X20.736 Y52.843 E33.95996
G1 X21.956 Y54.063 E34.07963
G1 X21.521 Y54.398 E34.11767
G1 X20.736 Y53.612 E34.19469
G1 X20.736 Y54.382 E34.24803
G1 X21.087 Y54.733 E34.28243
G1 X20.736 Y48.224 F6000.000
G1 X31.776 Y59.264 F1200.000 E35.36448
G1 X32.546 Y59.264 E35.41783
G1 X20.736 Y47.454 E36.57533
G1 X20.736 Y46.684 E36.62867
G1 X33.315 Y59.264 E37.86161
G1 X34.085 Y59.264 E37.91496
G1 X20.736 Y45.915 E39.22334
G1 X20.736 Y45.145 E39.27669
G1 X34.855 Y59.264 E40.66051
G1 X35.625 Y59.264 E40.71386
G1 X20.736 Y44.375 E42.17313
G1 X20.736 Y43.605 E42.22647
G1 X36.394 Y59.264 E43.76118
G1 X37.164 Y59.264 E43.81453
G1 X20.736 Y42.836 E45.42468
G1 X20.736 Y42.066 E45.47803
G1 X37.934 Y59.264 E47.16362
G1 X38.704 Y59.264 E47.21697
G1 X20.736 Y41.296 E48.97802
G1 X20.736 Y40.526 E49.03137
G1 X39.474 Y59.264 E50.86786
G1 X40.243 Y59.264 E50.92120
G1 X20.736 Y39.757 E52.83313
G1 X20.736 Y38.987 E52.88648
G1 X41.013 Y59.264 E54.87385
G1 X41.783 Y59.264 E54.92720
G1 X20.736 Y38.217 E56.99002
G1 X20.736 Y37.447 E57.04336
G1 X42.553 Y59.264 E59.18162
G1 X43.322 Y59.264 E59.23497
G1 X20.736 Y36.678 E61.44867
G1 X20.736 Y35.908 E61.50202
G1 X44.092 Y59.264 E63.79117
G1 X44.862 Y59.264 E63.84451
G1 X20.736 Y35.138 E66.20910
G1 X20.736 Y34.368 E66.26245
G1 X45.632 Y59.264 E68.70248
G1 X46.401 Y59.264 E68.75582
G1 X20.736 Y33.599 E71.27130
G1 X20.736 Y32.829 E71.32464
G1 X47.171 Y59.264 E73.91556
G1 X47.941 Y59.264 E73.96890
G1 X20.736 Y32.059 E76.63526
G1 X20.736 Y31.289 E76.68861
G1 X48.711 Y59.264 E79.43041
G1 X49.480 Y59.264 E79.48376
G1 X20.736 Y30.520 E82.30100
G1 X20.736 Y29.750 E82.35435
G1 X50.250 Y59.264 E85.24703
G1 X51.020 Y59.264 E85.30038
G1 X20.736 Y28.980 E88.26851
G1 X20.736 Y28.210 E88.32186
G1 X51.790 Y59.264 E91.36543
G1 X52.560 Y59.264 E91.41877
G1 X20.736 Y27.440 E94.53779
G1 X20.736 Y26.671 E94.59114
G1 X53.329 Y59.264 E97.78559
G1 X54.099 Y59.264 E97.83894
G1 X20.736 Y25.901 E101.10884
G1 X20.736 Y25.131 E101.16219
G1 X54.869 Y59.264 E104.50753
G1 X55.639 Y59.264 E104.56088
G1 X21.811 Y25.437 E107.87625
G1 X22.930 Y25.786 E107.95743
G1 X54.107 Y56.963 E111.01307
G1 X53.972 Y56.059 E111.07643
G1 X23.694 Y25.781 E114.04392
G1 X24.312 Y25.629 E114.08800
G1 X54.061 Y55.378 E117.00366
G1 X54.277 Y54.824 E117.04484
G1 X24.840 Y25.387 E119.92993
G1 X25.276 Y25.054 E119.96799
G1 X54.570 Y54.347 E122.83898
G1 X54.924 Y53.931 E122.87682
G1 X25.637 Y24.645 E125.74717
G1 X25.936 Y24.174 E125.78582
G1 X55.360 Y53.598 E128.66960
G1 X55.882 Y53.350 E128.70963
G1 X26.161 Y23.629 E131.62248
G1 X26.250 Y22.948 E131.67007
G1 X56.491 Y53.189 E134.63391
G1 X57.243 Y53.171 E134.68603
G1 X26.156 Y22.084 E137.73284
G1 X26.347 Y20.736 F6000.000
G1 X59.264 Y53.653 F1200.000 E140.95905
G1 X59.264 Y52.883 E141.01239
G1 X27.117 Y20.736 E144.16316
G1 X27.886 Y20.736 E144.21651
G1 X59.264 Y52.114 E147.29184
G1 X59.264 Y51.344 E147.34518
G1 X28.656 Y20.736 E150.34507
G1 X29.426 Y20.736 E150.39841
G1 X59.264 Y50.574 E153.32286
G1 X59.264 Y49.804 E153.37621
G1 X30.196 Y20.736 E156.22520
G1 X30.965 Y20.736 E156.27854
G1 X59.264 Y49.035 E159.05209
G1 X59.264 Y48.265 E159.10544
G1 X31.735 Y20.736 E161.80355
G1 X32.505 Y20.736 E161.85689
G1 X59.264 Y47.495 E164.47955
G1 X59.264 Y46.725 E164.53290
G1 X33.275 Y20.736 E167.08012
G1 X34.044 Y20.736 E167.13347
G1 X59.264 Y45.956 E169.60525
G1 X59.264 Y45.186 E169.65859
G1 X34.814 Y20.736 E172.05493
G1 X35.584 Y20.736 E172.10827
G1 X59.264 Y44.416 E174.42917
G1 X59.264 Y43.646 E174.48251
G1 X36.354 Y20.736 E176.72796
G1 X37.123 Y20.736 E176.78131
G1 X59.264 Y42.877 E178.95131
G1 X59.264 Y42.107 E179.00466
G1 X37.893 Y20.736 E181.09923
G1 X38.663 Y20.736 E181.15257
G1 X59.264 Y41.337 E183.17169
G1 X59.264 Y40.567 E183.22504
G1 X39.433 Y20.736 E185.16872
G1 X40.202 Y20.736 E185.22207
G1 X59.264 Y39.798 E187.09030
G1 X59.264 Y39.028 E187.14364
G1 X40.972 Y20.736 E188.93643
G1 X41.742 Y20.736 E188.98978
G1 X59.264 Y38.258 E190.70712
G1 X59.264 Y37.488 E190.76047
G1 X42.512 Y20.736 E192.40237
G1 X43.282 Y20.736 E192.45571
G1 X59.264 Y36.718 E194.02217
G1 X59.264 Y35.949 E194.07552
G1 X44.051 Y20.736 E195.56653
G1 X44.821 Y20.736 E195.61988
G1 X59.264 Y35.179 E197.03545
G1 X59.264 Y34.409 E197.08880
G1 X45.591 Y20.736 E198.42893
G1 X46.361 Y20.736 E198.48227
G1 X59.264 Y33.639 E199.74696
G1 X59.264 Y32.870 E199.80031
G1 X47.130 Y20.736 E200.98955
G1 X47.900 Y20.736 E201.04290
G1 X59.264 Y32.100 E202.15670
G1 X59.264 Y31.330 E202.21005
G1 X48.670 Y20.736 E203.24840
G1 X49.440 Y20.736 E203.30175
G1 X59.264 Y30.560 E204.26467
G1 X59.264 Y29.791 E204.31801
G1 X50.209 Y20.736 E205.20549
G1 X50.979 Y20.736 E205.25883
G1 X54.109 Y23.865 E205.56556
G1 X54.046 Y23.033 E205.62344
G1 X51.749 Y20.736 E205.84856
G1 X52.519 Y20.736 E205.90190
G1 X54.152 Y22.369 E206.06201
G1 X54.378 Y21.825 E206.10284
G1 X53.288 Y20.736 E206.20961
G1 X54.058 Y20.736 E206.26296
G1 X54.696 Y21.374 E206.32549
G1 X55.991 Y25.747 F6000.000
G1 X59.264 Y29.021 F1200.000 E206.64634
G1 X59.264 Y28.251 E206.69968
G1 X56.824 Y25.810 E206.93891
G1 X57.487 Y25.704 E206.98546
G1 X59.264 Y27.481 E207.15968
G1 X59.264 Y26.712 E207.21303
G1 X58.031 Y25.478 E207.33392
G1 X58.487 Y25.164 E207.37227
G1 X59.264 Y25.942 E207.44850
G1 X59.264 Y25.172 E207.50185
G1 X58.922 Y24.829 E207.53545
G1 X58.334 Y53.493 F6000.000
G1 X25.577 Y20.736 F1200.000 E210.74591
G1 X55.726 Y58.582 F6000.000
G1 X56.408 Y59.264 F1200.000 E210.81282
G1 X57.160 Y59.264 F6000.000
G1 X56.817 Y58.921 F1200.000 E210.84934
G1 X57.357 Y58.624 E210.89572
G1 X57.997 Y59.264 E210.96389
G1 X58.833 Y59.264 E211.02689
G1 X57.948 Y58.379 E211.12116
G1 X58.448 Y58.042 E211.16654
G1 X59.264 Y58.859 E211.25354
G1 X59.264 Y58.022 E211.31654
G1 X58.921 Y57.680 E211.35306
G1 X59.254 Y21.304 F6000.000
G1 X58.910 Y20.960 F1200.000 E211.38635
G1 X21.318 Y21.350 F6000.000
G1 X20.797 Y20.829 F1200.000 E211.46314
G1 X20.876 Y24.264 F6000.000
G1 X20.680 Y24.069 F1200.000 E211.47389
M104 S180 ; set temperature
G1 Z0.200 F6000.000
G1 X55.048 Y54.212
G1 X55.552 Y53.827 F600.000 E211.51737
G1 X56.137 Y53.584 E211.56079
G1 X56.764 Y53.503 E211.60417
G1 X57.391 Y53.584 E211.64755
G1 X57.976 Y53.827 E211.69097
G1 X58.480 Y54.212 E211.73445
G1 X58.865 Y54.716 E211.77792
G1 X59.368 Y55.928 E211.86791
G1 X58.865 Y57.141 E211.95798
G1 X58.479 Y57.643 E212.00135
G1 X57.976 Y58.027 E212.04474
G1 X57.393 Y58.269 E212.08802
G1 X56.764 Y58.354 E212.13156
G1 X56.135 Y58.269 E212.17509
G1 X55.552 Y58.027 E212.21838
G1 X55.049 Y57.643 E212.26177
G1 X54.663 Y57.141 E212.30514
G1 X54.420 Y56.555 E212.34864
G1 X54.339 Y55.928 E212.39202
G1 X54.420 Y55.301 E212.43540
G1 X54.663 Y54.716 E212.47883
G1 X54.999 Y54.276 E212.51676
G1 X55.048 Y54.212 E212.52230
G1 X55.432 Y54.596 F6000.000
G1 X55.823 Y54.297 F600.000 E212.55603
G1 X56.277 Y54.109 E212.58973
G1 X56.764 Y54.046 E212.62341
G1 X57.251 Y54.109 E212.65708
G1 X57.705 Y54.297 E212.69079
G1 X58.096 Y54.596 E212.72452
G1 X58.395 Y54.987 E212.75825
G1 X58.583 Y55.441 E212.79195
G1 X58.646 Y55.928 E212.82562
G1 X58.583 Y56.415 E212.85930
G1 X58.394 Y56.869 E212.89303
G1 X58.095 Y57.258 E212.92665
G1 X57.705 Y57.557 E212.96035
G1 X57.252 Y57.745 E212.99401
G1 X56.764 Y57.811 E213.02775
G1 X56.276 Y57.745 E213.06149
G1 X55.823 Y57.557 E213.09515
G1 X55.433 Y57.258 E213.12885
G1 X55.134 Y56.869 E213.16247
G1 X54.945 Y56.415 E213.19620
G1 X54.882 Y55.928 E213.22988
G1 X54.945 Y55.441 E213.26355
G1 X55.133 Y54.987 E213.29726
G1 X55.383 Y54.660 E213.32545
G1 X55.432 Y54.596 E213.33099
G1 X56.820 Y25.461 F6000.000
G1 X56.193 Y25.380 F600.000 E213.37436
G1 X55.608 Y25.137 E213.41779
G1 X55.104 Y24.752 E213.46126
G1 X54.719 Y24.248 E213.50474
G1 X54.476 Y23.663 E213.54816
G1 X54.395 Y23.036 E213.59154
G1 X54.476 Y22.409 E213.63492
G1 X54.719 Y21.824 E213.67834
G1 X55.104 Y21.320 E213.72182
G1 X55.608 Y20.935 E213.76529
G1 X56.820 Y20.432 E213.85528
G1 X58.033 Y20.935 E213.94535
G1 X58.533 Y21.320 E213.98861
G1 X58.922 Y21.824 E214.03221
G1 X59.418 Y23.036 E214.12203
G1 X58.922 Y24.248 E214.21186
G1 X58.533 Y24.752 E214.25546
G1 X58.033 Y25.137 E214.29872
G1 X57.447 Y25.380 E214.34222
G1 X56.900 Y25.451 E214.38006
