; generated by Slic3r 0.9.3 on 2012-11-18 at 11:13:09

; layer_height = 0.25
; perimeters = 2
; solid_layers = 3
; fill_density = .3
; perimeter_speed = 50
; infill_speed = 50
; travel_speed = 80
; scale = 1
; nozzle_diameter = 0.5
; filament_diameter = 3.0
; extrusion_multiplier = 1.05
; single wall width = 0.70mm

M107
M190 S65 ; wait for bed temperature to be reached
M104 S188 ; set temperature
G28 ; home all
M140 S75 ; turn on bed
M109 S188 ; wait for temperature to be reached
G90 ; use absolute coordinates
G21 ; set units to millimeters
G92 E0
M82 ; use absolute distances for extrusion
G1 F600.000 E-0.50000
G92 E0
G1 Z0.125 F4800.000
G1 X56.640 Y96.100
G1 F600.000 E0.50000
G1 X56.960 Y95.790 F1200.000 E0.50550
G1 X57.130 Y95.650 E0.50822
G1 X57.310 Y95.520 E0.51096
G1 X57.690 Y95.290 E0.51645
G1 X57.880 Y95.190 E0.51910
G1 X58.290 Y95.010 E0.52463
G1 X58.710 Y94.880 E0.53006
G1 X58.920 Y94.830 E0.53273
G1 X59.140 Y94.790 E0.53549
G1 X59.800 Y94.740 E0.54366
G1 X67.410 Y94.750 E0.63765
G1 X67.850 Y94.790 E0.64310
G1 X68.070 Y94.830 E0.64587
G1 X68.490 Y94.940 E0.65123
G1 X68.910 Y95.090 E0.65674
G1 X69.490 Y95.400 E0.66486
G1 X69.680 Y95.520 E0.66763
G1 X70.190 Y95.940 E0.67579
G1 X70.340 Y96.090 E0.67841
G1 X103.010 Y138.140 E1.33605
G1 X103.250 Y138.530 E1.34171
G1 X103.450 Y138.940 E1.34734
G1 X103.530 Y139.150 E1.35012
G1 X103.660 Y139.590 E1.35579
G1 X103.750 Y140.040 E1.36145
G1 X103.790 Y140.720 E1.36987
G1 X103.780 Y140.950 E1.37271
G1 X103.720 Y141.400 E1.37832
G1 X103.550 Y142.060 E1.38673
G1 X103.270 Y142.750 E1.39593
G1 X102.930 Y143.330 E1.40423
G1 X102.800 Y143.520 E1.40708
G1 X102.520 Y143.860 E1.41251
G1 X102.200 Y144.170 E1.41802
G1 X102.020 Y144.320 E1.42091
G1 X101.660 Y144.580 E1.42640
G1 X101.270 Y144.800 E1.43193
G1 X100.860 Y144.980 E1.43746
G1 X100.210 Y145.170 E1.44582
G1 X99.990 Y145.210 E1.44858
G1 X99.320 Y145.260 E1.45688
G1 X59.580 Y145.250 E1.94767
G1 X59.140 Y145.210 E1.95313
G1 X58.920 Y145.170 E1.95589
G1 X58.500 Y145.060 E1.96125
G1 X58.290 Y144.990 E1.96399
G1 X57.880 Y144.810 E1.96952
G1 X57.500 Y144.600 E1.97488
G1 X57.310 Y144.480 E1.97765
G1 X57.130 Y144.350 E1.98040
G1 X56.960 Y144.210 E1.98312
G1 X56.490 Y143.740 E1.99132
G1 X56.350 Y143.570 E1.99404
G1 X56.220 Y143.390 E1.99679
G1 X55.990 Y143.010 E2.00227
G1 X55.890 Y142.820 E2.00492
G1 X55.710 Y142.410 E2.01045
G1 X55.580 Y141.990 E2.01588
G1 X55.530 Y141.780 E2.01855
G1 X55.490 Y141.560 E2.02131
G1 X55.440 Y140.900 E2.02949
G1 X55.450 Y98.880 E2.54844
G1 X55.490 Y98.440 E2.55390
G1 X55.530 Y98.220 E2.55666
G1 X55.640 Y97.800 E2.56202
G1 X55.710 Y97.590 E2.56475
G1 X55.890 Y97.180 E2.57028
G1 X56.100 Y96.800 E2.57564
G1 X56.199 Y96.642 E2.57795
G1 X56.760 Y97.040 F4800.000
G1 X56.870 Y96.870 F1200.000 E2.58045
G1 X57.130 Y96.570 E2.58535
G1 X57.270 Y96.430 E2.58779
G1 X57.570 Y96.170 E2.59270
G1 X57.900 Y95.950 E2.59760
G1 X58.260 Y95.760 E2.60262
G1 X58.440 Y95.680 E2.60506
G1 X58.630 Y95.610 E2.60756
G1 X59.200 Y95.470 E2.61480
G1 X59.400 Y95.440 E2.61730
G1 X59.800 Y95.420 E2.62225
G1 X67.400 Y95.430 E2.71611
G1 X67.820 Y95.470 E2.72132
G1 X68.420 Y95.630 E2.72899
G1 X68.620 Y95.710 E2.73165
G1 X68.990 Y95.890 E2.73673
G1 X69.350 Y96.120 E2.74201
G1 X69.670 Y96.380 E2.74710
G1 X70.100 Y96.840 E2.75488
G1 X102.460 Y138.540 E3.40675
G1 X102.670 Y138.880 E3.41169
G1 X102.760 Y139.060 E3.41418
G1 X102.910 Y139.440 E3.41922
G1 X102.970 Y139.630 E3.42168
G1 X103.060 Y140.030 E3.42675
G1 X103.090 Y140.230 E3.42924
G1 X103.110 Y140.630 E3.43419
G1 X103.090 Y141.040 E3.43926
G1 X103.020 Y141.440 E3.44427
G1 X102.910 Y141.830 E3.44928
G1 X102.730 Y142.290 E3.45538
G1 X102.550 Y142.660 E3.46046
G1 X102.330 Y143.010 E3.46557
G1 X102.210 Y143.180 E3.46814
G1 X101.930 Y143.490 E3.47329
G1 X101.620 Y143.770 E3.47845
G1 X101.290 Y144.010 E3.48349
G1 X101.110 Y144.120 E3.48610
G1 X100.730 Y144.300 E3.49129
G1 X100.540 Y144.370 E3.49379
G1 X100.140 Y144.490 E3.49895
G1 X99.940 Y144.530 E3.50147
G1 X99.730 Y144.560 E3.50409
G1 X99.320 Y144.580 E3.50916
G1 X59.400 Y144.560 E4.00218
G1 X59.200 Y144.530 E4.00467
G1 X58.630 Y144.390 E4.01192
G1 X58.440 Y144.320 E4.01442
G1 X58.080 Y144.150 E4.01934
G1 X57.900 Y144.050 E4.02188
G1 X57.570 Y143.830 E4.02678
G1 X57.270 Y143.570 E4.03168
G1 X57.130 Y143.430 E4.03413
G1 X56.870 Y143.130 E4.03903
G1 X56.650 Y142.800 E4.04393
G1 X56.460 Y142.440 E4.04896
G1 X56.380 Y142.260 E4.05139
G1 X56.310 Y142.070 E4.05389
G1 X56.170 Y141.500 E4.06114
G1 X56.140 Y141.300 E4.06364
G1 X56.140 Y98.700 E4.58975
G1 X56.170 Y98.500 E4.59225
G1 X56.310 Y97.930 E4.59950
G1 X56.380 Y97.740 E4.60200
G1 X56.420 Y97.650 E4.60321
G1 F600.000 E4.10321
G92 E0
G1 X66.513 Y99.787 F4800.000
G1 F600.000 E0.50000
G1 X66.513 Y100.651 F1200.000 E0.51081
G1 X63.913 Y100.651 E0.54331
G1 X63.913 Y106.253 E0.61332
G1 X97.775 Y139.951 E1.21045
G1 X97.667 Y140.213 E1.21400
G1 X95.078 Y140.213 E1.24636
G1 X65.267 Y110.547 E1.77206
G1 X63.913 Y111.109 E1.79038
G1 X63.913 Y140.213 E2.15416
G1 X60.487 Y140.213 E2.19700
G1 X60.487 Y99.787 E2.70232
G1 X65.813 Y99.787 E2.76890
G1 X67.200 Y99.100 F4800.000
G1 X67.200 Y101.338 F1200.000 E2.79687
G1 X64.600 Y101.338 E2.82937
G1 X64.600 Y105.967 E2.88724
G1 X99.433 Y140.632 E3.50150
G1 X99.323 Y140.900 E3.50512
G1 X94.794 Y140.900 E3.56172
G1 X65.107 Y111.357 E4.08523
G1 X64.600 Y111.568 E4.09210
G1 X64.600 Y140.900 E4.45874
G1 X59.800 Y140.900 E4.51874
G1 X59.800 Y99.100 E5.04122
G1 X66.500 Y99.100 E5.12497
G1 F600.000 E4.62497
G92 E0
G1 X63.722 Y100.968 F4800.000
G1 F600.000 E0.50000
G1 X62.732 Y99.978 F1200.000 E0.51764
G1 X61.753 Y99.978 F4800.000
G1 X63.722 Y101.947 F1200.000 E0.55273
G1 X63.722 Y102.926 F4800.000
G1 X60.774 Y99.978 F1200.000 E0.60526
G1 X60.678 Y100.861 F4800.000
G1 X63.722 Y103.905 F1200.000 E0.65951
G1 X63.722 Y104.883 F4800.000
G1 X60.678 Y101.839 F1200.000 E0.71375
G1 X60.678 Y102.818 F4800.000
G1 X63.722 Y105.862 F1200.000 E0.76800
G1 X63.722 Y106.841 F4800.000
G1 X60.678 Y103.797 F1200.000 E0.82224
G1 X60.678 Y104.776 F4800.000
G1 X95.924 Y140.022 F1200.000 E1.45038
G1 F600.000 E0.95038
G92 E0
G1 X63.722 Y139.139 F4800.000
G1 F600.000 E0.50000
G1 X60.678 Y136.096 F1200.000 E0.55424
G1 X60.678 Y137.074 F4800.000
G1 X63.626 Y140.022 F1200.000 E0.60678
G1 X62.647 Y140.022 F4800.000
G1 X60.678 Y138.053 F1200.000 E0.64186
G1 X60.678 Y139.032 F4800.000
G1 X61.668 Y140.022 F1200.000 E0.65951
G1 F600.000 E0.15951
G92 E0
G1 X63.722 Y138.161 F4800.000
G1 F600.000 E0.50000
G1 X60.678 Y135.117 F1200.000 E0.55424
G1 X60.678 Y134.138 F4800.000
G1 X63.722 Y137.182 F1200.000 E0.60849
G1 X63.722 Y136.203 F4800.000
G1 X60.678 Y133.159 F1200.000 E0.66273
G1 X60.678 Y132.181 F4800.000
G1 X63.722 Y135.224 F1200.000 E0.71698
G1 X63.722 Y134.246 F4800.000
G1 X60.678 Y131.202 F1200.000 E0.77122
G1 X60.678 Y130.223 F4800.000
G1 X63.722 Y133.267 F1200.000 E0.82547
G1 X63.722 Y132.288 F4800.000
G1 X60.678 Y129.244 F1200.000 E0.87971
G1 X60.678 Y128.266 F4800.000
G1 X63.722 Y131.309 F1200.000 E0.93396
G1 X63.722 Y130.331 F4800.000
G1 X60.678 Y127.287 F1200.000 E0.98820
G1 X60.678 Y126.308 F4800.000
G1 X63.722 Y129.352 F1200.000 E1.04245
G1 X63.722 Y128.373 F4800.000
G1 X60.678 Y125.329 F1200.000 E1.09669
G1 X60.678 Y124.351 F4800.000
G1 X63.722 Y127.394 F1200.000 E1.15094
G1 X63.722 Y126.416 F4800.000
G1 X60.678 Y123.372 F1200.000 E1.20518
G1 X60.678 Y122.393 F4800.000
G1 X63.722 Y125.437 F1200.000 E1.25943
G1 X63.722 Y124.458 F4800.000
G1 X60.678 Y121.414 F1200.000 E1.31367
G1 X60.678 Y120.436 F4800.000
G1 X63.722 Y123.479 F1200.000 E1.36791
G1 X63.722 Y122.501 F4800.000
G1 X60.678 Y119.457 F1200.000 E1.42216
G1 X60.678 Y118.478 F4800.000
G1 X63.722 Y121.522 F1200.000 E1.47640
G1 X63.722 Y120.543 F4800.000
G1 X60.678 Y117.499 F1200.000 E1.53065
G1 X60.678 Y116.521 F4800.000
G1 X63.722 Y119.564 F1200.000 E1.58489
G1 X63.722 Y118.586 F4800.000
G1 X60.678 Y115.542 F1200.000 E1.63914
G1 X60.678 Y114.563 F4800.000
G1 X63.722 Y117.607 F1200.000 E1.69338
G1 X63.722 Y116.628 F4800.000
G1 X60.678 Y113.584 F1200.000 E1.74763
G1 X60.678 Y112.606 F4800.000
G1 X63.722 Y115.649 F1200.000 E1.80187
G1 X63.722 Y114.671 F4800.000
G1 X60.678 Y111.627 F1200.000 E1.85612
G1 X60.678 Y110.648 F4800.000
G1 X63.722 Y113.692 F1200.000 E1.91036
G1 X63.722 Y112.713 F4800.000
G1 X60.678 Y109.669 F1200.000 E1.96461
G1 X60.678 Y108.691 F4800.000
G1 X63.722 Y111.734 F1200.000 E2.01885
G1 X63.998 Y111.032 F4800.000
G1 X60.678 Y107.712 F1200.000 E2.07801
G1 X60.678 Y106.733 F4800.000
G1 X64.689 Y110.744 F1200.000 E2.14950
G1 X65.381 Y110.457 F4800.000
G1 X60.678 Y105.754 F1200.000 E2.23330
M104 S180 ; set temperature
G1 F600.000 E1.73330
G92 E0
G1 Z0.375 F4800.000
G1 X60.479 Y99.779
G1 F600.000 E0.50000
G1 X66.521 Y99.779 F2783.423 E0.64746
G1 X66.521 Y100.659 E0.66895
G1 X63.921 Y100.659 E0.73240
G1 X63.921 Y106.249 E0.86880
G1 X64.599 Y106.924 E0.89214
G1 X64.599 Y106.924 E0.89214
G1 X97.798 Y139.962 E2.03500
G1 X97.690 Y140.221 E2.04185
G1 X95.075 Y140.221 E2.10569
G1 X65.265 Y110.556 E3.13189
G1 X63.921 Y111.115 E3.16739
G1 X63.921 Y140.221 E3.87763
G1 X60.479 Y140.221 E3.96165
G1 X60.479 Y100.479 E4.93143
G1 X59.800 Y99.100 F4800.000
G1 X67.200 Y99.100 F2783.423 E5.11200
G1 X67.200 Y101.338 E5.16661
G1 X64.600 Y101.338 E5.23005
G1 X64.600 Y105.967 E5.34302
G1 X99.433 Y140.632 E6.54217
G1 X99.323 Y140.900 E6.54924
G1 X94.794 Y140.900 E6.65973
G1 X65.107 Y111.357 E7.68172
G1 X64.600 Y111.568 E7.69512
G1 X64.600 Y140.900 E8.41087
G1 X59.800 Y140.900 E8.52800
G1 X59.800 Y99.800 E9.53090
G1 X60.662 Y100.952 F4800.000
G1 X61.652 Y99.962 F2783.423 E9.56526
G1 X62.618 Y99.962 F4800.000
G1 X60.662 Y101.918 F2783.423 E9.63312
G1 X60.662 Y102.883 F4800.000
G1 X63.583 Y99.962 F2783.423 E9.73448
G1 X63.738 Y100.772 F4800.000
G1 X60.662 Y103.848 F2783.423 E9.84123
G1 X60.662 Y104.814 F4800.000
G1 X63.738 Y101.738 F2783.423 E9.94797
G1 X63.738 Y102.704 F4800.000
G1 X60.662 Y105.780 F2783.423 E10.05471
G1 X60.662 Y106.745 F4800.000
G1 X63.738 Y103.669 F2783.423 E10.16145
G1 X63.738 Y104.635 F4800.000
G1 X60.662 Y107.711 F2783.423 E10.26820
G1 X60.662 Y108.676 F4800.000
G1 X63.738 Y105.600 F2783.423 E10.37494
G1 X64.003 Y106.300 F4800.000
G1 X60.662 Y109.641 F2783.423 E10.49089
G1 X60.662 Y110.607 F4800.000
G1 X64.487 Y106.782 F2783.423 E10.62362
G1 X64.971 Y107.264 F4800.000
G1 X60.662 Y111.573 F2783.423 E10.77316
G1 X60.662 Y112.538 F4800.000
G1 X65.455 Y107.745 F2783.423 E10.93948
G1 X65.939 Y108.226 F4800.000
G1 X63.194 Y110.972 F2783.423 E11.03474
G1 X63.738 Y111.393 F4800.000
G1 X60.662 Y114.469 F2783.423 E11.14148
G1 X60.662 Y115.435 F4800.000
G1 X63.738 Y112.359 F2783.423 E11.24822
G1 X63.738 Y113.324 F4800.000
G1 X60.662 Y116.400 F2783.423 E11.35497
G1 X60.662 Y117.365 F4800.000
G1 X63.738 Y114.289 F2783.423 E11.46171
G1 X63.738 Y115.255 F4800.000
G1 X60.662 Y118.331 F2783.423 E11.56845
G1 X60.662 Y119.297 F4800.000
G1 X63.738 Y116.221 F2783.423 E11.67520
G1 X63.738 Y117.186 F4800.000
G1 X60.662 Y120.262 F2783.423 E11.78194
G1 X60.662 Y121.228 F4800.000
G1 X63.738 Y118.152 F2783.423 E11.88868
G1 X63.738 Y119.117 F4800.000
G1 X60.662 Y122.193 F2783.423 E11.99543
G1 X60.662 Y123.158 F4800.000
G1 X63.738 Y120.082 F2783.423 E12.10217
G1 X63.738 Y121.048 F4800.000
G1 X60.662 Y124.124 F2783.423 E12.20891
G1 X60.662 Y125.090 F4800.000
G1 X63.738 Y122.014 F2783.423 E12.31565
G1 X63.738 Y122.979 F4800.000
G1 X60.662 Y126.055 F2783.423 E12.42240
G1 X60.662 Y127.020 F4800.000
G1 X63.738 Y123.944 F2783.423 E12.52914
G1 X63.738 Y124.910 F4800.000
G1 X60.662 Y127.986 F2783.423 E12.63589
G1 X60.662 Y128.952 F4800.000
G1 X63.738 Y125.876 F2783.423 E12.74263
G1 X63.738 Y126.841 F4800.000
G1 X60.662 Y129.917 F2783.423 E12.84937
G1 X60.662 Y130.882 F4800.000
G1 X63.738 Y127.806 F2783.423 E12.95611
G1 X63.738 Y128.772 F4800.000
G1 X60.662 Y131.848 F2783.423 E13.06286
G1 X60.662 Y132.813 F4800.000
G1 X63.738 Y129.737 F2783.423 E13.16960
G1 X63.738 Y130.703 F4800.000
G1 X60.662 Y133.779 F2783.423 E13.27634
G1 X60.662 Y134.745 F4800.000
G1 X63.738 Y131.669 F2783.423 E13.38309
G1 X63.738 Y132.634 F4800.000
G1 X60.662 Y135.710 F2783.423 E13.48983
G1 X60.662 Y136.675 F4800.000
G1 X63.738 Y133.599 F2783.423 E13.59658
G1 X63.738 Y134.565 F4800.000
G1 X60.662 Y137.641 F2783.423 E13.70332
G1 X60.662 Y138.607 F4800.000
G1 X63.738 Y135.531 F2783.423 E13.81006
G1 X63.738 Y136.496 F4800.000
G1 X60.662 Y139.572 F2783.423 E13.91680
G1 X61.161 Y140.038 F4800.000
G1 X63.738 Y137.461 F2783.423 E14.00621
G1 X63.738 Y138.427 F4800.000
G1 X62.127 Y140.038 F2783.423 E14.06211
G1 F600.000 E13.56211
G92 E0
G1 X78.454 Y123.712 F4800.000
G1 F600.000 E0.50000
G1 X79.973 Y122.193 F2783.423 E0.55271
G1 X79.488 Y121.711 F4800.000
G1 X77.970 Y123.230 F2783.423 E0.60542
G1 X77.485 Y122.748 F4800.000
G1 X79.004 Y121.229 F2783.423 E0.65813
G1 X78.521 Y120.748 F4800.000
G1 X77.002 Y122.267 F2783.423 E0.71084
G1 X76.518 Y121.785 F4800.000
G1 X78.037 Y120.266 F2783.423 E0.76355
G1 X77.553 Y119.784 F4800.000
G1 X76.034 Y121.303 F2783.423 E0.81626
G1 X75.550 Y120.822 F4800.000
G1 X77.069 Y119.303 F2783.423 E0.86897
G1 X76.585 Y118.821 F4800.000
G1 X75.066 Y120.341 F2783.423 E0.92168
G1 X74.582 Y119.859 F4800.000
G1 X76.101 Y118.340 F2783.423 E0.97439
G1 X75.617 Y117.858 F4800.000
G1 X74.098 Y119.377 F2783.423 E1.02710
G1 X73.614 Y118.896 F4800.000
G1 X75.133 Y117.377 F2783.423 E1.07981
G1 X74.649 Y116.895 F4800.000
G1 X73.130 Y118.414 F2783.423 E1.13253
G1 X72.646 Y117.932 F4800.000
G1 X74.165 Y116.413 F2783.423 E1.18524
G1 X73.682 Y115.932 F4800.000
G1 X72.163 Y117.451 F2783.423 E1.23795
G1 X71.679 Y116.969 F4800.000
G1 X73.198 Y115.450 F2783.423 E1.29066
G1 X72.714 Y114.969 F4800.000
G1 X71.195 Y116.488 F2783.423 E1.34337
G1 X70.711 Y116.007 F4800.000
G1 X72.230 Y114.488 F2783.423 E1.39609
G1 X71.746 Y114.006 F4800.000
G1 X70.227 Y115.525 F2783.423 E1.44880
G1 X69.743 Y115.043 F4800.000
G1 X71.262 Y113.524 F2783.423 E1.50151
G1 X70.778 Y113.042 F4800.000
G1 X69.259 Y114.561 F2783.423 E1.55422
G1 X68.775 Y114.080 F4800.000
G1 X70.294 Y112.561 F2783.423 E1.60693
G1 X69.810 Y112.079 F4800.000
G1 X68.291 Y113.598 F2783.423 E1.65965
G1 X67.807 Y113.117 F4800.000
G1 X69.326 Y111.598 F2783.423 E1.71236
G1 X68.843 Y111.117 F4800.000
G1 X67.324 Y112.636 F2783.423 E1.76507
G1 X66.840 Y112.154 F4800.000
G1 X68.359 Y110.635 F2783.423 E1.81779
G1 X67.874 Y110.153 F4800.000
G1 X66.355 Y111.672 F2783.423 E1.87050
G1 X65.871 Y111.190 F4800.000
G1 X67.390 Y109.671 F2783.423 E1.92321
G1 X66.907 Y109.190 F4800.000
G1 X65.388 Y110.709 F2783.423 E1.97593
G1 X64.846 Y110.285 F4800.000
G1 X66.423 Y108.708 F2783.423 E2.03065
G1 F600.000 E1.53065
G92 E0
G1 X63.738 Y110.427 F4800.000
G1 F600.000 E0.50000
G1 X60.662 Y113.503 F2783.423 E0.60674
G1 F600.000 E0.10674
G92 E0
G1 X78.938 Y124.193 F4800.000
G1 F600.000 E0.50000
G1 X80.457 Y122.674 F2783.423 E0.55271
G1 X80.940 Y123.155 F4800.000
G1 X79.421 Y124.674 F2783.423 E0.60542
G1 X79.905 Y125.156 F4800.000
G1 X81.424 Y123.637 F2783.423 E0.65813
G1 X81.908 Y124.119 F4800.000
G1 X80.389 Y125.638 F2783.423 E0.71084
G1 X80.873 Y126.119 F4800.000
G1 X82.392 Y124.600 F2783.423 E0.76354
G1 X82.876 Y125.082 F4800.000
G1 X81.357 Y126.601 F2783.423 E0.81625
G1 X81.841 Y127.083 F4800.000
G1 X83.360 Y125.564 F2783.423 E0.86896
G1 X83.844 Y126.045 F4800.000
G1 X82.325 Y127.564 F2783.423 E0.92167
G1 X82.809 Y128.045 F4800.000
G1 X84.328 Y126.527 F2783.423 E0.97438
G1 X84.812 Y127.008 F4800.000
G1 X83.293 Y128.527 F2783.423 E1.02709
G1 X83.777 Y129.009 F4800.000
G1 X85.296 Y127.490 F2783.423 E1.07980
G1 X85.779 Y127.971 F4800.000
G1 X84.260 Y129.490 F2783.423 E1.13251
G1 X84.744 Y129.972 F4800.000
G1 X86.263 Y128.453 F2783.423 E1.18521
G1 X86.747 Y128.935 F4800.000
G1 X85.229 Y130.454 F2783.423 E1.23792
G1 X85.713 Y130.935 F4800.000
G1 X87.232 Y129.417 F2783.423 E1.29063
G1 X87.715 Y129.898 F4800.000
G1 X86.196 Y131.416 F2783.423 E1.34333
G1 X86.680 Y131.898 F4800.000
G1 X88.199 Y130.379 F2783.423 E1.39604
G1 X88.683 Y130.861 F4800.000
G1 X87.164 Y132.380 F2783.423 E1.44875
G1 X87.648 Y132.861 F4800.000
G1 X89.167 Y131.342 F2783.423 E1.50146
