; generated by Slic3r 0.9.3 on 2012-11-28 at 23:25:29

; layer_height = 0.25
; perimeters = 2
; solid_layers = 3
; fill_density = .3
; perimeter_speed = 50
; infill_speed = 50
; travel_speed = 80
; scale = 1
; nozzle_diameter = 0.5
; filament_diameter = 3.0
; extrusion_multiplier = 1.05
; single wall width = 0.70mm

M107
M190 S65 ; wait for bed temperature to be reached
M104 S188 ; set temperature
G28 ; home all
M140 S75 ; turn on bed
M109 S188 ; wait for temperature to be reached
G90 ; use absolute coordinates
G21 ; set units to millimeters
G92 E0
M82 ; use absolute distances for extrusion
G1 F600.000 E-0.50000
G92 E0
G1 Z0.125 F4800.000
G1 X28.150 Y99.585
G1 F600.000 E0.50000
G1 X28.540 Y99.305 F1200.000 E0.50593
G1 X56.950 Y85.585 E0.89557
G1 X57.630 Y85.325 E0.90456
G1 X58.110 Y85.215 E0.91064
G1 X58.600 Y85.165 E0.91672
G1 X58.840 Y85.155 E0.91969
G1 X101.380 Y85.165 E1.44507
G1 X101.870 Y85.215 E1.45115
G1 X102.350 Y85.325 E1.45723
G1 X102.810 Y85.485 E1.46325
G1 X131.240 Y99.185 E1.85300
G1 X131.450 Y99.305 E1.85599
G1 X131.840 Y99.585 E1.86192
G1 X132.020 Y99.735 E1.86481
G1 X132.360 Y100.065 E1.87066
G1 X132.660 Y100.435 E1.87655
G1 X132.800 Y100.635 E1.87956
G1 X132.920 Y100.835 E1.88244
G1 X133.030 Y101.045 E1.88537
G1 X143.230 Y124.405 E2.20017
G1 X143.380 Y124.895 E2.20650
G1 X143.470 Y125.405 E2.21290
G1 X143.500 Y125.915 E2.21920
G1 X143.490 Y132.045 E2.29491
G1 X143.440 Y132.515 E2.30075
G1 X143.340 Y132.985 E2.30668
G1 X143.270 Y133.205 E2.30953
G1 X143.090 Y133.645 E2.31541
G1 X132.870 Y152.725 E2.58272
G1 X132.750 Y152.915 E2.58550
G1 X132.480 Y153.275 E2.59105
G1 X132.180 Y153.605 E2.59656
G1 X131.840 Y153.895 E2.60208
G1 X131.470 Y154.155 E2.60767
G1 X131.080 Y154.375 E2.61320
G1 X130.670 Y154.555 E2.61873
G1 X130.030 Y154.745 E2.62697
G1 X129.810 Y154.785 E2.62973
G1 X129.140 Y154.835 E2.63803
G1 X30.630 Y154.825 E3.85464
G1 X30.180 Y154.785 E3.86022
G1 X29.960 Y154.745 E3.86298
G1 X29.320 Y154.555 E3.87123
G1 X28.910 Y154.375 E3.87676
G1 X28.330 Y154.035 E3.88506
G1 X27.980 Y153.755 E3.89060
G1 X27.660 Y153.445 E3.89610
G1 X27.510 Y153.275 E3.89890
G1 X27.240 Y152.915 E3.90446
G1 X16.900 Y133.665 E4.17432
G1 X16.810 Y133.445 E4.17726
G1 X16.650 Y132.995 E4.18316
G1 X16.550 Y132.525 E4.18909
G1 X16.500 Y132.055 E4.19493
G1 X16.500 Y125.655 E4.27397
G1 X16.520 Y125.405 E4.27707
G1 X16.610 Y124.895 E4.28346
G1 X16.760 Y124.405 E4.28979
G1 X26.960 Y101.045 E4.60459
G1 X27.070 Y100.835 E4.60752
G1 X27.190 Y100.635 E4.61040
G1 X27.470 Y100.245 E4.61633
G1 X27.630 Y100.065 E4.61931
G1 X27.636 Y100.059 E4.61941
G1 X28.200 Y100.455 F4800.000
G1 X28.520 Y100.155 F1200.000 E4.62482
G1 X28.690 Y100.025 E4.62747
G1 X28.870 Y99.905 E4.63014
G1 X29.250 Y99.695 E4.63550
G1 X57.460 Y86.105 E5.02222
G1 X57.680 Y86.025 E5.02511
G1 X57.910 Y85.955 E5.02808
G1 X58.370 Y85.865 E5.03387
G1 X58.840 Y85.835 E5.03968
G1 X101.380 Y85.845 E5.56506
G1 X101.610 Y85.865 E5.56791
G1 X102.070 Y85.955 E5.57370
G1 X102.300 Y86.025 E5.57667
G1 X102.520 Y86.105 E5.57956
G1 X130.930 Y99.795 E5.96904
G1 X131.120 Y99.905 E5.97175
G1 X131.300 Y100.025 E5.97442
G1 X131.470 Y100.155 E5.97706
G1 X131.790 Y100.455 E5.98248
G1 X131.940 Y100.615 E5.98519
G1 X132.200 Y100.965 E5.99057
G1 X132.420 Y101.335 E5.99589
G1 X142.600 Y124.675 E6.31037
G1 X142.680 Y124.915 E6.31349
G1 X142.740 Y125.165 E6.31667
G1 X142.810 Y125.665 E6.32290
G1 X142.810 Y132.035 E6.40157
G1 X142.760 Y132.475 E6.40704
G1 X142.710 Y132.705 E6.40995
G1 X142.650 Y132.915 E6.41265
G1 X142.570 Y133.135 E6.41554
G1 X142.380 Y133.545 E6.42112
G1 X132.280 Y152.395 E6.68523
G1 X132.040 Y152.735 E6.69037
G1 X131.770 Y153.055 E6.69554
G1 X131.460 Y153.335 E6.70070
G1 X131.120 Y153.575 E6.70584
G1 X130.940 Y153.685 E6.70844
G1 X130.750 Y153.785 E6.71110
G1 X130.370 Y153.945 E6.71619
G1 X129.760 Y154.105 E6.72398
G1 X129.140 Y154.155 E6.73166
G1 X30.640 Y154.145 E7.94815
G1 X30.230 Y154.105 E7.95323
G1 X29.620 Y153.945 E7.96102
G1 X29.240 Y153.785 E7.96611
G1 X29.050 Y153.685 E7.96877
G1 X28.870 Y153.575 E7.97137
G1 X28.530 Y153.335 E7.97651
G1 X28.220 Y153.055 E7.98167
G1 X27.950 Y152.735 E7.98684
G1 X27.710 Y152.395 E7.99198
G1 X17.510 Y133.355 E8.25874
G1 X17.420 Y133.145 E8.26157
G1 X17.340 Y132.925 E8.26446
G1 X17.280 Y132.715 E8.26715
G1 X17.230 Y132.485 E8.27006
G1 X17.180 Y132.045 E8.27553
G1 X17.180 Y125.665 E8.35432
G1 X17.250 Y125.165 E8.36056
G1 X17.310 Y124.915 E8.36373
G1 X17.480 Y124.445 E8.36991
G1 X27.570 Y101.335 E8.68134
G1 X27.767 Y101.003 E8.68610
G1 F600.000 E8.18610
G92 E0
G1 X37.663 Y108.358 F4800.000
G1 F600.000 E0.50000
G1 X38.175 Y107.690 F1200.000 E0.51051
G1 X40.027 Y106.269 E0.53970
G1 X42.185 Y105.375 E0.56889
G1 X44.500 Y105.070 E0.59808
G1 X46.815 Y105.375 E0.62727
G1 X48.973 Y106.269 E0.65646
G1 X50.825 Y107.690 E0.68565
G1 X52.247 Y109.543 E0.71484
G1 X53.141 Y111.701 E0.74403
G1 X53.446 Y114.016 E0.77322
G1 X53.141 Y116.331 E0.80241
G1 X52.247 Y118.489 E0.83160
G1 X51.512 Y119.447 E0.84670
G1 X51.511 Y119.447 E0.84670
G1 X50.825 Y120.341 E0.86079
G1 X48.973 Y121.763 E0.88998
G1 X46.815 Y122.657 E0.91917
G1 X44.500 Y122.961 E0.94836
G1 X42.185 Y122.657 E0.97755
G1 X40.027 Y121.763 E1.00674
G1 X38.175 Y120.341 E1.03593
G1 X37.489 Y119.447 E1.05001
G1 X37.488 Y119.447 E1.05001
G1 X36.753 Y118.489 E1.06512
G1 X35.859 Y116.331 E1.09431
G1 X35.554 Y114.016 E1.12349
G1 X35.859 Y111.701 E1.15268
G1 X36.753 Y109.543 E1.18187
G1 X37.236 Y108.913 E1.19180
G1 X37.890 Y109.189 F4800.000
G1 X37.890 Y109.189 F1200.000 E1.19180
G1 X38.664 Y108.180 E1.20770
G1 X40.373 Y106.869 E1.23463
G1 X42.364 Y106.044 E1.26156
G1 X44.500 Y105.763 E1.28849
G1 X46.636 Y106.044 E1.31542
G1 X48.627 Y106.869 E1.34235
G1 X50.336 Y108.180 E1.36928
G1 X50.972 Y109.009 E1.38234
G1 X50.972 Y109.009 E1.38234
G1 X51.647 Y109.889 E1.39621
G1 X52.472 Y111.880 E1.42314
G1 X52.753 Y114.016 E1.45007
G1 X52.472 Y116.152 E1.47700
G1 X51.647 Y118.142 E1.50393
G1 X50.336 Y119.852 E1.53086
G1 X48.627 Y121.163 E1.55779
G1 X46.636 Y121.988 E1.58472
G1 X44.500 Y122.269 E1.61165
G1 X42.364 Y121.988 E1.63858
G1 X40.373 Y121.163 E1.66551
G1 X38.664 Y119.852 E1.69244
G1 X37.353 Y118.142 E1.71937
G1 X36.528 Y116.152 E1.74630
G1 X36.247 Y114.016 E1.77323
G1 X36.528 Y111.880 E1.80016
G1 X37.353 Y109.889 E1.82709
G1 X37.464 Y109.744 E1.82937
G1 F600.000 E1.32937
G92 E0
G1 X106.141 Y114.352 F4800.000
G1 F600.000 E0.50000
G1 X106.445 Y112.036 F1200.000 E0.52919
G1 X107.339 Y109.879 E0.55838
G1 X108.761 Y108.026 E0.58757
G1 X110.613 Y106.604 E0.61676
G1 X112.771 Y105.711 E0.64595
G1 X115.086 Y105.406 E0.67514
G1 X117.401 Y105.711 E0.70433
G1 X119.559 Y106.604 E0.73352
G1 X121.412 Y108.026 E0.76271
G1 X121.735 Y108.447 E0.76934
G1 X121.735 Y108.447 E0.76934
G1 X122.833 Y109.879 E0.79190
G1 X123.727 Y112.036 E0.82109
G1 X124.032 Y114.352 E0.85028
G1 X123.727 Y116.667 E0.87947
G1 X122.833 Y118.824 E0.90866
G1 X121.412 Y120.677 E0.93785
G1 X119.559 Y122.099 E0.96704
G1 X117.401 Y122.992 E0.99622
G1 X115.086 Y123.297 E1.02541
G1 X112.771 Y122.992 E1.05460
G1 X110.613 Y122.099 E1.08379
G1 X108.761 Y120.677 E1.11298
G1 X108.384 Y120.186 E1.12072
G1 X108.384 Y120.186 E1.12072
G1 X107.339 Y118.824 E1.14217
G1 X106.445 Y116.667 E1.17136
G1 X106.232 Y115.046 E1.19180
G1 X106.833 Y114.352 F4800.000
G1 X107.114 Y112.216 F1200.000 E1.21873
G1 X107.939 Y110.225 E1.24566
G1 X109.250 Y108.516 E1.27259
G1 X110.960 Y107.204 E1.29952
G1 X112.950 Y106.380 E1.32645
G1 X115.086 Y106.099 E1.35338
G1 X117.222 Y106.380 E1.38031
G1 X119.213 Y107.204 E1.40724
G1 X120.922 Y108.516 E1.43417
G1 X122.233 Y110.225 E1.46110
G1 X123.058 Y112.216 E1.48803
G1 X123.339 Y114.352 E1.51496
G1 X123.058 Y116.488 E1.54189
G1 X122.233 Y118.478 E1.56882
G1 X120.922 Y120.187 E1.59575
G1 X119.213 Y121.499 E1.62268
G1 X117.222 Y122.323 E1.64961
G1 X115.086 Y122.605 E1.67654
G1 X112.950 Y122.323 E1.70347
G1 X110.960 Y121.499 E1.73040
G1 X109.250 Y120.187 E1.75733
G1 X108.722 Y119.499 E1.76817
G1 X108.722 Y119.499 E1.76817
G1 X107.939 Y118.478 E1.78426
G1 X107.114 Y116.488 E1.81119
G1 X106.924 Y115.046 E1.82937
G1 F600.000 E1.32937
G92 E0
G1 X91.249 Y108.214 F4800.000
G1 F600.000 E0.50000
G1 X90.143 Y110.884 F1200.000 E0.53613
G1 X88.282 Y113.309 E0.57434
G1 X87.597 Y113.835 E0.58513
G1 X87.597 Y113.835 E0.58513
G1 X85.856 Y115.171 E0.61257
G1 X83.031 Y116.341 E0.65078
G1 X80.000 Y116.740 E0.68900
G1 X76.969 Y116.341 E0.72722
G1 X74.144 Y115.171 E0.76543
G1 X72.800 Y114.139 E0.78661
G1 X72.800 Y114.139 E0.78661
G1 X71.718 Y113.309 E0.80365
G1 X69.857 Y110.884 E0.84187
G1 X68.687 Y108.059 E0.88008
G1 X68.288 Y105.028 E0.91830
G1 X68.687 Y101.996 E0.95652
G1 X69.857 Y99.172 E0.99473
G1 X71.250 Y97.357 E1.02333
G1 X71.250 Y97.357 E1.02333
G1 X71.718 Y96.746 E1.03295
G1 X73.774 Y95.169 E1.06533
G1 X73.774 Y95.169 E1.06533
G1 X74.144 Y94.885 E1.07117
G1 X76.969 Y93.715 E1.10938
G1 X80.000 Y93.316 E1.14760
G1 X83.031 Y93.715 E1.18582
G1 X85.856 Y94.885 E1.22403
G1 X87.206 Y95.921 E1.24530
G1 X87.206 Y95.921 E1.24530
G1 X88.282 Y96.746 E1.26225
G1 X90.143 Y99.172 E1.30047
G1 X91.313 Y101.997 E1.33868
G1 X91.489 Y103.334 E1.35555
G1 X91.489 Y103.334 E1.35555
G1 X91.712 Y105.028 E1.37690
G1 X91.382 Y107.531 E1.40846
G1 X90.644 Y107.880 F4800.000
G1 X89.543 Y110.538 F1200.000 E1.44441
G1 X87.792 Y112.820 E1.48037
G1 X87.657 Y112.923 E1.48250
G1 X87.657 Y112.923 E1.48250
G1 X85.510 Y114.571 E1.51633
G1 X82.852 Y115.672 E1.55228
G1 X80.000 Y116.047 E1.58824
G1 X77.148 Y115.672 E1.62420
G1 X74.490 Y114.571 E1.66016
G1 X72.887 Y113.341 E1.68541
G1 X72.887 Y113.341 E1.68541
G1 X72.208 Y112.820 E1.69611
G1 X70.457 Y110.538 E1.73207
G1 X69.356 Y107.880 E1.76803
G1 X68.981 Y105.028 E1.80398
G1 X69.356 Y102.176 E1.83994
G1 X70.457 Y99.518 E1.87590
G1 X72.161 Y97.297 E1.91089
G1 X72.161 Y97.297 E1.91089
G1 X72.208 Y97.236 E1.91185
G1 X74.490 Y95.485 E1.94781
G1 X77.148 Y94.384 E1.98377
G1 X80.000 Y94.008 E2.01973
G1 X82.852 Y94.384 E2.05568
G1 X85.510 Y95.485 E2.09164
G1 X87.634 Y97.114 E2.12510
G1 X87.634 Y97.114 E2.12510
G1 X87.792 Y97.236 E2.12760
G1 X89.543 Y99.518 E2.16355
G1 X90.644 Y102.176 E2.19951
G1 X90.706 Y102.648 E2.20546
G1 X90.706 Y102.648 E2.20546
G1 X91.019 Y105.028 E2.23547
G1 X90.735 Y107.186 E2.26267
G1 F600.000 E1.76267
G92 E0
G1 X82.406 Y135.956 F4800.000
G1 F600.000 E0.50000
G1 X83.524 Y136.502 F1200.000 E0.51555
G1 X84.463 Y137.318 E0.53110
G1 X85.159 Y138.349 E0.54666
G1 X85.565 Y139.525 E0.56221
G1 X85.652 Y140.766 E0.57776
G1 X85.415 Y141.988 E0.59331
G1 X84.869 Y143.106 E0.60886
G1 X84.053 Y144.045 E0.62441
G1 X83.022 Y144.741 E0.63997
G1 X81.846 Y145.147 E0.65552
G1 X80.605 Y145.234 E0.67107
G1 X79.383 Y144.997 E0.68662
G1 X78.265 Y144.451 E0.70217
G1 X77.326 Y143.635 E0.71773
G1 X76.630 Y142.604 E0.73328
G1 X76.224 Y141.428 E0.74883
G1 X76.137 Y140.186 E0.76438
G1 X76.374 Y138.965 E0.77993
G1 X76.920 Y137.847 E0.79549
G1 X77.736 Y136.908 E0.81104
G1 X78.767 Y136.212 E0.82659
G1 X79.943 Y135.806 E0.84214
G1 X81.185 Y135.719 E0.85769
G1 X81.719 Y135.823 E0.86450
G1 X81.685 Y136.516 F4800.000
G1 X82.186 Y136.613 F1200.000 E0.87087
G1 X83.142 Y137.079 E0.88417
G1 X83.945 Y137.777 E0.89746
G1 X84.540 Y138.658 E0.91075
G1 X84.886 Y139.663 E0.92404
G1 X84.961 Y140.724 E0.93733
G1 X84.758 Y141.768 E0.95063
G1 X84.292 Y142.724 E0.96392
G1 X83.594 Y143.527 E0.97721
G1 X82.713 Y144.122 E0.99050
G1 X81.707 Y144.468 E1.00380
G1 X80.647 Y144.542 E1.01709
G1 X79.603 Y144.340 E1.03038
G1 X78.647 Y143.874 E1.04367
G1 X77.844 Y143.176 E1.05696
G1 X77.249 Y142.295 E1.07026
G1 X76.903 Y141.289 E1.08355
G1 X76.829 Y140.229 E1.09684
G1 X77.031 Y139.185 E1.11013
G1 X77.497 Y138.229 E1.12343
G1 X78.195 Y137.426 E1.13672
G1 X79.076 Y136.831 E1.15001
G1 X80.082 Y136.485 E1.16330
G1 X80.996 Y136.421 E1.17476
G1 F600.000 E0.67476
G92 E0
G1 X31.537 Y149.798 F4800.000
G1 F600.000 E0.50000
G1 X31.537 Y131.129 F1200.000 E0.73336
G1 X21.537 Y131.129 E0.85836
G1 X21.537 Y126.605 E0.91490
G1 X31.537 Y126.605 E1.03990
G1 X31.537 Y103.702 E1.32618
G1 X59.537 Y103.702 E1.67616
G1 X59.537 Y90.202 E1.84491
G1 X100.463 Y90.202 E2.35648
G1 X100.463 Y103.702 E2.52522
G1 X128.463 Y103.702 E2.87521
G1 X128.463 Y126.604 E3.16148
G1 X138.463 Y126.604 E3.28648
G1 X138.463 Y131.129 E3.34303
G1 X128.463 Y131.129 E3.46802
G1 X128.463 Y149.798 E3.70139
G1 X32.237 Y149.798 E4.90418
G1 X30.850 Y150.485 F4800.000
G1 X30.850 Y131.815 F1200.000 E5.13754
G1 X20.850 Y131.815 E5.26254
G1 X20.850 Y125.918 E5.33625
G1 X30.850 Y125.918 E5.46124
G1 X30.850 Y103.015 E5.74752
G1 X58.850 Y103.015 E6.09751
G1 X58.850 Y89.515 E6.26625
G1 X101.150 Y89.515 E6.79498
G1 X101.150 Y103.015 E6.96373
G1 X129.150 Y103.015 E7.31371
G1 X129.150 Y125.918 E7.59999
G1 X139.150 Y125.918 E7.72498
G1 X139.150 Y131.815 E7.79870
G1 X129.150 Y131.815 E7.92369
G1 X129.150 Y150.485 E8.15706
G1 X31.550 Y150.485 E9.37701
G1 X32.718 Y149.607 F4800.000
G1 X31.728 Y148.617 F1200.000 E9.39457
G1 X31.728 Y147.642 F4800.000
G1 X33.693 Y149.607 F1200.000 E9.42941
G1 X34.666 Y149.606 F4800.000
G1 X31.728 Y146.668 F1200.000 E9.48152
G1 X31.728 Y145.694 F4800.000
G1 X35.640 Y149.607 F1200.000 E9.55091
G1 X36.615 Y149.607 F4800.000
G1 X31.728 Y144.720 F1200.000 E9.63758
G1 X31.728 Y143.746 F4800.000
G1 X37.589 Y149.607 F1200.000 E9.74153
G1 X38.563 Y149.607 F4800.000
G1 X31.728 Y142.772 F1200.000 E9.86276
G1 X31.728 Y141.798 F4800.000
G1 X39.538 Y149.607 F1200.000 E10.00126
G1 X40.511 Y149.606 F4800.000
G1 X31.728 Y140.823 F1200.000 E10.15703
G1 X31.728 Y139.849 F4800.000
G1 X41.485 Y149.607 F1200.000 E10.33009
G1 X42.459 Y149.607 F4800.000
G1 X31.728 Y138.875 F1200.000 E10.52042
G1 X31.728 Y137.901 F4800.000
G1 X43.434 Y149.607 F1200.000 E10.72804
G1 X44.408 Y149.607 F4800.000
G1 X31.728 Y136.927 F1200.000 E10.95293
G1 X31.728 Y135.953 F4800.000
G1 X45.383 Y149.607 F1200.000 E11.19510
G1 X46.356 Y149.606 F4800.000
G1 X31.728 Y134.978 F1200.000 E11.45454
G1 X31.728 Y134.005 F4800.000
G1 X47.330 Y149.607 F1200.000 E11.73126
G1 X48.304 Y149.607 F4800.000
G1 X31.728 Y133.030 F1200.000 E12.02526
G1 X31.728 Y132.056 F4800.000
G1 X49.279 Y149.607 F1200.000 E12.33653
G1 X50.253 Y149.607 F4800.000
G1 X31.728 Y131.082 F1200.000 E12.66508
G1 X31.583 Y130.937 F4800.000
G1 X27.443 Y126.796 F1200.000 E12.73852
G1 X26.468 Y126.796 F4800.000
G1 X30.609 Y130.937 F1200.000 E12.81196
G1 X29.635 Y130.937 F4800.000
G1 X25.494 Y126.796 F1200.000 E12.88540
G1 X24.520 Y126.796 F4800.000
G1 X28.660 Y130.937 F1200.000 E12.95884
G1 X27.687 Y130.936 F4800.000
G1 X23.546 Y126.796 F1200.000 E13.03228
G1 X22.572 Y126.796 F4800.000
G1 X26.713 Y130.937 F1200.000 E13.10572
G1 X25.739 Y130.937 F4800.000
G1 X21.728 Y126.927 F1200.000 E13.17685
G1 X21.728 Y127.901 F4800.000
G1 X24.764 Y130.937 F1200.000 E13.23070
G1 X23.790 Y130.937 F4800.000
G1 X21.728 Y128.875 F1200.000 E13.26727
G1 X21.728 Y129.850 F4800.000
G1 X22.815 Y130.937 F1200.000 E13.28655
G1 F600.000 E12.78655
G92 E0
G1 X28.417 Y126.796 F4800.000
G1 F600.000 E0.50000
G1 X32.558 Y130.937 F1200.000 E0.57344
G1 X31.728 Y130.108 F4800.000
G1 X51.228 Y149.607 F1200.000 E0.91927
G1 X52.201 Y149.607 F4800.000
G1 X29.390 Y126.796 F1200.000 E1.32384
G1 X30.364 Y126.796 F4800.000
G1 X53.175 Y149.607 F1200.000 E1.72840
G1 X54.149 Y149.607 F4800.000
G1 X31.339 Y126.796 F1200.000 E2.13297
G1 X31.728 Y126.211 F4800.000
G1 X55.124 Y149.607 F1200.000 E2.54790
G1 X56.098 Y149.607 F4800.000
G1 X31.728 Y125.237 F1200.000 E2.98012
G1 X31.728 Y124.263 F4800.000
G1 X57.072 Y149.606 F1200.000 E3.42961
G1 X58.046 Y149.607 F4800.000
G1 X31.728 Y123.289 F1200.000 E3.89637
G1 X31.728 Y122.315 F4800.000
G1 X59.020 Y149.607 F1200.000 E4.38042
G1 X59.994 Y149.607 F4800.000
G1 X31.728 Y121.340 F1200.000 E4.88175
G1 X31.728 Y120.367 F4800.000
G1 X60.969 Y149.607 F1200.000 E5.40036
G1 X61.943 Y149.607 F4800.000
G1 X31.728 Y119.392 F1200.000 E5.93624
G1 X31.728 Y118.418 F4800.000
G1 X62.917 Y149.606 F1200.000 E6.48939
G1 X63.890 Y149.607 F4800.000
G1 X31.728 Y117.444 F1200.000 E7.05982
G1 X31.728 Y116.470 F4800.000
G1 X64.865 Y149.607 F1200.000 E7.64753
G1 X65.839 Y149.607 F4800.000
G1 X31.728 Y115.496 F1200.000 E8.25252
