; generated by Slic3r 0.9.3 on 2012-11-28 at 23:55:05

; layer_height = 0.25
; perimeters = 2
; solid_layers = 3
; fill_density = .3
; perimeter_speed = 50
; infill_speed = 50
; travel_speed = 80
; scale = 1
; nozzle_diameter = 0.5
; filament_diameter = 3.0
; extrusion_multiplier = 1.05
; single wall width = 0.70mm

M107
M190 S65 ; wait for bed temperature to be reached
M104 S188 ; set temperature
G28 ; home all
M140 S75 ; turn on bed
M109 S188 ; wait for temperature to be reached
G90 ; use absolute coordinates
G21 ; set units to millimeters
G92 E0
M82 ; use absolute distances for extrusion
G1 F600.000 E-0.50000
G92 E0
G1 Z0.125 F4800.000
G1 X28.150 Y99.585
G1 F600.000 E0.50000
G1 X28.540 Y99.305 F1200.000 E0.50593
G1 X57.180 Y85.485 E0.89866
G1 X57.640 Y85.325 E0.90468
G1 X58.120 Y85.215 E0.91076
G1 X58.610 Y85.165 E0.91684
G1 X58.850 Y85.155 E0.91981
G1 X101.380 Y85.165 E1.44506
G1 X101.870 Y85.215 E1.45114
G1 X102.350 Y85.325 E1.45723
G1 X102.810 Y85.485 E1.46324
G1 X131.240 Y99.185 E1.85300
G1 X131.450 Y99.305 E1.85598
G1 X131.840 Y99.585 E1.86191
G1 X132.020 Y99.735 E1.86481
G1 X132.360 Y100.065 E1.87066
G1 X132.660 Y100.435 E1.87654
G1 X132.920 Y100.835 E1.88243
G1 X133.030 Y101.045 E1.88536
G1 X143.240 Y124.405 E2.20021
G1 X143.390 Y124.905 E2.20666
G1 X143.480 Y125.405 E2.21293
G1 X143.510 Y125.925 E2.21937
G1 X143.490 Y132.045 E2.29495
G1 X143.440 Y132.525 E2.30091
G1 X143.330 Y132.985 E2.30675
G1 X143.260 Y133.215 E2.30972
G1 X143.090 Y133.655 E2.31555
G1 X132.870 Y152.725 E2.58275
G1 X132.750 Y152.915 E2.58553
G1 X132.480 Y153.275 E2.59108
G1 X132.180 Y153.605 E2.59659
G1 X131.840 Y153.895 E2.60211
G1 X131.470 Y154.155 E2.60770
G1 X131.080 Y154.375 E2.61323
G1 X130.670 Y154.555 E2.61876
G1 X130.030 Y154.745 E2.62700
G1 X129.810 Y154.785 E2.62976
G1 X129.140 Y154.835 E2.63806
G1 X30.630 Y154.825 E3.85467
G1 X30.180 Y154.785 E3.86025
G1 X29.960 Y154.745 E3.86301
G1 X29.320 Y154.555 E3.87126
G1 X28.910 Y154.375 E3.87679
G1 X28.330 Y154.035 E3.88509
G1 X27.980 Y153.755 E3.89063
G1 X27.660 Y153.445 E3.89613
G1 X27.510 Y153.275 E3.89893
G1 X27.240 Y152.915 E3.90449
G1 X16.900 Y133.665 E4.17435
G1 X16.810 Y133.445 E4.17729
G1 X16.650 Y132.995 E4.18319
G1 X16.550 Y132.525 E4.18912
G1 X16.500 Y132.055 E4.19496
G1 X16.500 Y125.655 E4.27400
G1 X16.520 Y125.405 E4.27710
G1 X16.610 Y124.895 E4.28349
G1 X16.760 Y124.405 E4.28982
G1 X26.960 Y101.045 E4.60462
G1 X27.070 Y100.835 E4.60755
G1 X27.190 Y100.635 E4.61043
G1 X27.330 Y100.435 E4.61345
G1 X27.630 Y100.065 E4.61933
G1 X27.636 Y100.059 E4.61943
G1 X28.200 Y100.455 F4800.000
G1 X28.520 Y100.155 F1200.000 E4.62485
G1 X28.690 Y100.025 E4.62749
G1 X28.870 Y99.905 E4.63016
G1 X29.250 Y99.695 E4.63553
G1 X57.470 Y86.105 E5.02235
G1 X57.690 Y86.025 E5.02525
G1 X57.920 Y85.955 E5.02821
G1 X58.380 Y85.865 E5.03400
G1 X58.850 Y85.835 E5.03982
G1 X101.380 Y85.845 E5.56507
G1 X101.610 Y85.865 E5.56792
G1 X102.070 Y85.955 E5.57371
G1 X102.300 Y86.025 E5.57668
G1 X102.520 Y86.105 E5.57957
G1 X130.930 Y99.795 E5.96905
G1 X131.120 Y99.905 E5.97176
G1 X131.300 Y100.025 E5.97443
G1 X131.470 Y100.155 E5.97708
G1 X131.790 Y100.455 E5.98249
G1 X131.940 Y100.615 E5.98520
G1 X132.200 Y100.965 E5.99059
G1 X132.420 Y101.335 E5.99590
G1 X142.610 Y124.675 E6.31043
G1 X142.690 Y124.915 E6.31355
G1 X142.750 Y125.165 E6.31673
G1 X142.820 Y125.665 E6.32296
G1 X142.810 Y132.035 E6.40163
G1 X142.760 Y132.485 E6.40723
G1 X142.650 Y132.925 E6.41283
G1 X142.480 Y133.345 E6.41842
G1 X132.280 Y152.395 E6.68530
G1 X132.040 Y152.735 E6.69044
G1 X131.770 Y153.055 E6.69561
G1 X131.460 Y153.335 E6.70077
G1 X131.120 Y153.575 E6.70591
G1 X130.940 Y153.685 E6.70851
G1 X130.750 Y153.785 E6.71116
G1 X130.370 Y153.945 E6.71625
G1 X129.760 Y154.105 E6.72404
G1 X129.140 Y154.155 E6.73172
G1 X30.640 Y154.145 E7.94821
G1 X30.230 Y154.105 E7.95330
G1 X29.620 Y153.945 E7.96109
G1 X29.240 Y153.785 E7.96618
G1 X29.050 Y153.685 E7.96883
G1 X28.870 Y153.575 E7.97144
G1 X28.530 Y153.335 E7.97658
G1 X28.220 Y153.055 E7.98174
G1 X27.950 Y152.735 E7.98691
G1 X27.710 Y152.395 E7.99205
G1 X17.510 Y133.355 E8.25881
G1 X17.420 Y133.145 E8.26163
G1 X17.340 Y132.925 E8.26452
G1 X17.280 Y132.715 E8.26722
G1 X17.230 Y132.485 E8.27013
G1 X17.180 Y132.045 E8.27560
G1 X17.180 Y125.665 E8.35439
G1 X17.250 Y125.165 E8.36063
G1 X17.310 Y124.915 E8.36380
G1 X17.480 Y124.445 E8.36997
G1 X27.570 Y101.335 E8.68140
G1 X27.767 Y101.003 E8.68617
G1 F600.000 E8.18617
G92 E0
G1 X40.444 Y111.200 F4800.000
G1 F600.000 E0.50000
G1 X41.337 Y110.250 F1200.000 E0.51630
G1 X42.446 Y109.563 E0.53260
G1 X43.694 Y109.187 E0.54890
G1 X44.998 Y109.146 E0.56520
G1 X46.267 Y109.444 E0.58150
G1 X47.416 Y110.061 E0.59780
G1 X48.367 Y110.954 E0.61410
G1 X49.054 Y112.062 E0.63040
G1 X49.430 Y113.311 E0.64671
G1 X49.471 Y114.614 E0.66301
G1 X49.172 Y115.884 E0.67931
G1 X48.556 Y117.033 E0.69561
G1 X47.663 Y117.983 E0.71191
G1 X46.554 Y118.670 E0.72821
G1 X45.306 Y119.047 E0.74451
G1 X44.002 Y119.087 E0.76081
G1 X42.733 Y118.789 E0.77711
G1 X41.584 Y118.173 E0.79341
G1 X40.633 Y117.279 E0.80971
G1 X39.946 Y116.171 E0.82601
G1 X39.570 Y114.922 E0.84231
G1 X39.529 Y113.619 E0.85861
G1 X39.828 Y112.349 E0.87491
G1 X40.113 Y111.817 E0.88247
G1 X40.475 Y112.594 F4800.000
G1 X41.006 Y111.605 F1200.000 E0.89651
G1 X41.776 Y110.786 E0.91055
G1 X42.730 Y110.194 E0.92459
G1 X43.806 Y109.870 E0.93863
G1 X44.929 Y109.835 E0.95267
G1 X46.022 Y110.092 E0.96671
G1 X47.012 Y110.623 E0.98075
G1 X47.831 Y111.392 E0.99479
G1 X48.422 Y112.347 E1.00883
G1 X48.747 Y113.423 E1.02287
G1 X48.782 Y114.545 E1.03692
G1 X48.525 Y115.639 E1.05096
G1 X47.994 Y116.629 E1.06500
G1 X47.224 Y117.447 E1.07904
G1 X46.270 Y118.039 E1.09308
G1 X45.194 Y118.363 E1.10712
G1 X44.071 Y118.398 E1.12116
G1 X42.978 Y118.141 E1.13520
G1 X41.988 Y117.610 E1.14924
G1 X41.169 Y116.841 E1.16328
G1 X40.578 Y115.886 E1.17732
G1 X40.253 Y114.811 E1.19137
G1 X40.218 Y113.688 E1.20541
G1 X40.315 Y113.276 E1.21070
G1 F600.000 E0.71070
G92 E0
G1 X110.529 Y113.619 F4800.000
G1 F600.000 E0.50000
G1 X110.828 Y112.349 F1200.000 E0.51630
G1 X111.444 Y111.200 E0.53260
G1 X112.337 Y110.250 E0.54890
G1 X113.446 Y109.563 E0.56520
G1 X114.694 Y109.186 E0.58150
G1 X115.998 Y109.146 E0.59780
G1 X117.267 Y109.444 E0.61410
G1 X118.416 Y110.061 E0.63040
G1 X119.367 Y110.954 E0.64671
G1 X120.054 Y112.062 E0.66301
G1 X120.430 Y113.311 E0.67931
G1 X120.471 Y114.614 E0.69561
G1 X120.172 Y115.884 E0.71191
G1 X119.556 Y117.033 E0.72821
G1 X118.663 Y117.983 E0.74451
G1 X117.554 Y118.670 E0.76081
G1 X116.306 Y119.047 E0.77711
G1 X115.002 Y119.087 E0.79341
G1 X113.733 Y118.789 E0.80971
G1 X112.584 Y118.172 E0.82601
G1 X111.633 Y117.279 E0.84231
G1 X110.946 Y116.171 E0.85861
G1 X110.570 Y114.922 E0.87491
G1 X110.551 Y114.318 E0.88247
G1 X111.253 Y114.811 F4800.000
G1 X111.218 Y113.688 F1200.000 E0.89651
G1 X111.475 Y112.594 E0.91055
G1 X112.006 Y111.604 E0.92459
G1 X112.776 Y110.786 E0.93863
G1 X113.731 Y110.194 E0.95267
G1 X114.806 Y109.870 E0.96671
G1 X115.929 Y109.835 E0.98075
G1 X117.022 Y110.092 E0.99479
G1 X118.012 Y110.623 E1.00883
G1 X118.831 Y111.392 E1.02287
G1 X119.422 Y112.347 E1.03692
G1 X119.747 Y113.422 E1.05096
G1 X119.782 Y114.545 E1.06500
G1 X119.525 Y115.639 E1.07904
G1 X118.994 Y116.629 E1.09308
G1 X118.224 Y117.447 E1.10712
G1 X117.269 Y118.039 E1.12116
G1 X116.194 Y118.363 E1.13520
G1 X115.071 Y118.398 E1.14924
G1 X113.978 Y118.141 E1.16328
G1 X112.988 Y117.610 E1.17732
G1 X112.169 Y116.841 E1.19137
G1 X111.578 Y115.886 E1.20541
G1 X111.455 Y115.481 E1.21070
G1 F600.000 E0.71070
G92 E0
G1 X91.313 Y108.059 F4800.000
G1 F600.000 E0.50000
G1 X90.143 Y110.884 F1200.000 E0.53822
G1 X88.282 Y113.309 E0.57643
G1 X85.856 Y115.171 E0.61465
G1 X83.031 Y116.341 E0.65287
G1 X80.000 Y116.740 E0.69108
G1 X76.969 Y116.341 E0.72930
G1 X75.732 Y115.828 E0.74604
G1 X75.732 Y115.828 E0.74604
G1 X74.144 Y115.171 E0.76752
G1 X71.718 Y113.309 E0.80573
G1 X69.857 Y110.884 E0.84395
G1 X68.687 Y108.059 E0.88217
G1 X68.288 Y105.028 E0.92038
G1 X68.687 Y101.997 E0.95860
G1 X69.857 Y99.172 E0.99682
G1 X71.718 Y96.746 E1.03503
G1 X74.144 Y94.885 E1.07325
G1 X76.296 Y93.994 E1.10236
G1 X76.296 Y93.994 E1.10236
G1 X76.969 Y93.715 E1.11147
G1 X80.000 Y93.316 E1.14968
G1 X83.031 Y93.715 E1.18790
G1 X85.856 Y94.885 E1.22612
G1 X88.282 Y96.746 E1.26433
G1 X90.143 Y99.172 E1.30255
G1 X90.800 Y100.759 E1.32403
G1 X90.800 Y100.759 E1.32403
G1 X91.313 Y101.997 E1.34077
G1 X91.712 Y105.028 E1.37898
G1 X91.612 Y105.790 E1.38860
G1 X91.612 Y105.790 E1.38860
G1 X91.404 Y107.365 E1.40845
G1 X90.644 Y107.880 F4800.000
G1 X89.543 Y110.538 F1200.000 E1.44441
G1 X87.792 Y112.820 E1.48037
G1 X85.510 Y114.571 E1.51632
G1 X82.852 Y115.672 E1.55228
G1 X80.000 Y116.047 E1.58824
G1 X77.148 Y115.672 E1.62419
G1 X75.045 Y114.801 E1.65265
G1 X75.045 Y114.801 E1.65265
G1 X74.490 Y114.571 E1.66015
G1 X72.208 Y112.820 E1.69611
G1 X70.457 Y110.538 E1.73206
G1 X69.356 Y107.880 E1.76802
G1 X68.981 Y105.028 E1.80398
G1 X69.356 Y102.176 E1.83994
G1 X70.457 Y99.518 E1.87589
G1 X72.208 Y97.236 E1.91185
G1 X74.490 Y95.485 E1.94781
G1 X77.148 Y94.384 E1.98376
G1 X80.000 Y94.008 E2.01972
G1 X82.852 Y94.384 E2.05568
G1 X85.510 Y95.485 E2.09163
G1 X87.792 Y97.236 E2.12759
G1 X89.543 Y99.518 E2.16355
G1 X89.773 Y100.073 E2.17105
G1 X89.773 Y100.073 E2.17105
G1 X90.644 Y102.176 E2.19951
G1 X91.019 Y105.028 E2.23546
G1 X91.009 Y105.104 E2.23642
G1 X91.009 Y105.104 E2.23642
G1 X90.735 Y107.186 E2.26267
G1 F600.000 E1.76267
G92 E0
G1 X81.129 Y138.826 F4800.000
G1 F600.000 E0.50000
G1 X81.963 Y139.171 F1200.000 E0.51128
G1 X82.679 Y139.721 E0.52256
G1 X83.228 Y140.437 E0.53384
G1 X83.574 Y141.270 E0.54512
G1 X83.691 Y142.165 E0.55640
G1 X83.574 Y143.060 E0.56768
G1 X83.228 Y143.894 E0.57896
G1 X82.679 Y144.610 E0.59024
G1 X81.963 Y145.159 E0.60153
G1 X81.129 Y145.504 E0.61281
G1 X80.234 Y145.622 E0.62409
G1 X79.340 Y145.504 E0.63537
G1 X78.506 Y145.159 E0.64665
G1 X77.790 Y144.610 E0.65793
G1 X77.240 Y143.894 E0.66921
G1 X76.895 Y143.060 E0.68049
G1 X76.777 Y142.165 E0.69177
G1 X76.895 Y141.270 E0.70305
G1 X77.240 Y140.437 E0.71433
G1 X77.790 Y139.721 E0.72561
G1 X78.506 Y139.171 E0.73689
G1 X79.340 Y138.826 E0.74817
G1 X80.234 Y138.708 E0.75945
G1 X80.435 Y138.734 E0.76198
G1 X80.234 Y139.401 F4800.000
G1 X80.950 Y139.495 F1200.000 E0.77101
G1 X81.617 Y139.771 E0.78003
G1 X82.189 Y140.210 E0.78905
G1 X82.628 Y140.783 E0.79807
G1 X82.905 Y141.450 E0.80709
G1 X82.999 Y142.165 E0.81611
G1 X82.905 Y142.881 E0.82513
G1 X82.628 Y143.547 E0.83415
G1 X82.189 Y144.120 E0.84317
G1 X81.617 Y144.559 E0.85219
G1 X80.950 Y144.835 E0.86121
G1 X80.234 Y144.930 E0.87023
G1 X79.519 Y144.835 E0.87926
G1 X78.852 Y144.559 E0.88828
G1 X78.279 Y144.120 E0.89730
G1 X77.840 Y143.547 E0.90632
G1 X77.564 Y142.881 E0.91534
G1 X77.470 Y142.165 E0.92436
G1 X77.564 Y141.450 E0.93338
G1 X77.840 Y140.783 E0.94240
G1 X78.279 Y140.210 E0.95142
G1 X78.852 Y139.771 E0.96044
G1 X79.519 Y139.495 E0.96946
G1 X79.540 Y139.492 E0.96974
G1 F600.000 E0.46974
G92 E0
G1 X100.463 Y90.202 F4800.000
G1 F600.000 E0.50000
G1 X100.463 Y103.702 F1200.000 E0.66874
G1 X128.463 Y103.702 E1.01873
G1 X128.463 Y126.604 E1.30501
G1 X138.463 Y126.604 E1.43000
G1 X138.463 Y131.129 E1.48655
G1 X128.463 Y131.129 E1.61155
G1 X128.463 Y149.798 E1.84491
G1 X31.537 Y149.798 E3.05645
G1 X31.537 Y131.129 E3.28981
G1 X21.537 Y131.129 E3.41481
G1 X21.537 Y126.605 E3.47136
G1 X31.537 Y126.605 E3.59635
G1 X31.537 Y103.702 E3.88263
G1 X59.537 Y103.702 E4.23262
G1 X59.537 Y90.202 E4.40136
G1 X99.763 Y90.202 E4.90418
G1 X101.150 Y89.515 F4800.000
G1 X101.150 Y103.015 F1200.000 E5.07292
G1 X129.150 Y103.015 E5.42291
G1 X129.150 Y125.918 E5.70918
G1 X139.150 Y125.918 E5.83418
G1 X139.150 Y131.815 E5.90789
G1 X129.150 Y131.815 E6.03289
G1 X129.150 Y150.485 E6.26625
G1 X30.850 Y150.485 E7.49496
G1 X30.850 Y131.815 E7.72832
G1 X20.850 Y131.815 E7.85332
G1 X20.850 Y125.918 E7.92703
G1 X30.850 Y125.918 E8.05202
G1 X30.850 Y103.015 E8.33830
G1 X58.850 Y103.015 E8.68829
G1 X58.850 Y89.515 E8.85703
G1 X100.450 Y89.515 E9.37701
G1 X99.169 Y90.394 F4800.000
G1 X100.272 Y91.496 F1200.000 E9.39656
G1 X100.272 Y92.469 F4800.000
G1 X98.196 Y90.393 F1200.000 E9.43339
G1 X97.221 Y90.393 F4800.000
G1 X100.272 Y93.443 F1200.000 E9.48749
G1 X100.272 Y94.418 F4800.000
G1 X96.247 Y90.393 F1200.000 E9.55887
G1 X95.273 Y90.394 F4800.000
G1 X100.272 Y95.392 F1200.000 E9.64753
G1 X100.272 Y96.367 F4800.000
G1 X94.299 Y90.394 F1200.000 E9.75346
G1 X93.325 Y90.393 F4800.000
G1 X100.273 Y97.340 F1200.000 E9.87668
G1 X100.272 Y98.314 F4800.000
G1 X92.351 Y90.393 F1200.000 E10.01716
G1 X91.376 Y90.393 F4800.000
G1 X100.272 Y99.288 F1200.000 E10.17493
G1 X100.272 Y100.263 F4800.000
G1 X90.402 Y90.393 F1200.000 E10.34998
G1 X89.428 Y90.394 F4800.000
G1 X100.272 Y101.237 F1200.000 E10.54230
G1 X100.272 Y102.212 F4800.000
G1 X88.454 Y90.394 F1200.000 E10.75190
G1 X87.480 Y90.393 F4800.000
G1 X100.273 Y103.185 F1200.000 E10.97878
G1 X100.006 Y103.893 F4800.000
G1 X110.341 Y114.228 F1200.000 E11.16208
G1 X110.487 Y113.400 F4800.000
G1 X100.980 Y103.893 F1200.000 E11.33069
G1 X100.272 Y104.159 F4800.000
G1 X86.506 Y90.393 F1200.000 E11.57484
G1 X85.531 Y90.393 F4800.000
G1 X110.372 Y115.234 F1200.000 E12.01541
G1 X110.679 Y116.515 F4800.000
G1 X84.557 Y90.393 F1200.000 E12.47871
G1 X83.583 Y90.394 F4800.000
G1 X128.272 Y135.082 F1200.000 E13.27129
G1 X128.272 Y136.057 F4800.000
G1 X89.261 Y97.046 F1200.000 E13.96318
G1 X87.982 Y95.767 F4800.000
G1 X82.609 Y90.394 F1200.000 E14.05848
G1 X81.635 Y90.393 F4800.000
G1 X85.545 Y94.303 F1200.000 E14.12782
G1 X83.882 Y93.614 F4800.000
G1 X80.661 Y90.393 F1200.000 E14.18494
G1 X79.687 Y90.393 F4800.000
G1 X82.702 Y93.409 F1200.000 E14.23843
G1 X81.581 Y93.262 F4800.000
G1 X78.712 Y90.393 F1200.000 E14.28931
G1 X77.738 Y90.394 F4800.000
G1 X80.467 Y93.122 F1200.000 E14.33770
G1 X79.606 Y93.236 F4800.000
G1 X76.764 Y90.394 F1200.000 E14.38811
G1 X75.790 Y90.393 F4800.000
G1 X78.746 Y93.349 F1200.000 E14.44053
G1 X77.885 Y93.462 F4800.000
G1 X74.816 Y90.393 F1200.000 E14.49496
G1 X73.842 Y90.393 F4800.000
G1 X77.076 Y93.627 F1200.000 E14.55232
G1 X76.387 Y93.913 F4800.000
G1 X72.868 Y90.394 F1200.000 E14.61474
G1 X71.894 Y90.394 F4800.000
G1 X75.698 Y94.199 F1200.000 E14.68222
G1 X75.010 Y94.483 F4800.000
G1 X70.920 Y90.393 F1200.000 E14.75476
G1 X69.945 Y90.393 F4800.000
G1 X74.321 Y94.769 F1200.000 E14.83236
G1 X73.764 Y95.186 F4800.000
G1 X68.971 Y90.393 F1200.000 E14.91737
G1 X67.997 Y90.393 F4800.000
G1 X73.213 Y95.609 F1200.000 E15.00988
G1 X72.661 Y96.032 F4800.000
G1 X67.023 Y90.394 F1200.000 E15.10989
G1 X66.049 Y90.394 F4800.000
G1 X72.110 Y96.455 F1200.000 E15.21739
G1 X71.598 Y96.916 F4800.000
G1 X65.075 Y90.393 F1200.000 E15.33308
G1 X64.100 Y90.393 F4800.000
G1 X71.174 Y97.467 F1200.000 E15.45854
G1 X70.752 Y98.018 F4800.000
G1 X63.126 Y90.393 F1200.000 E15.59378
G1 X62.152 Y90.393 F4800.000
G1 X70.329 Y98.570 F1200.000 E15.73881
G1 X69.905 Y99.121 F4800.000
G1 X61.178 Y90.394 F1200.000 E15.89359
G1 X60.203 Y90.394 F4800.000
G1 X69.570 Y99.760 F1200.000 E16.05971
G1 X69.286 Y100.449 F4800.000
G1 X59.728 Y90.891 F1200.000 E16.22922
G1 X59.728 Y91.866 F4800.000
G1 X69.000 Y101.137 F1200.000 E16.39366
G1 X68.714 Y101.826 F4800.000
G1 X59.728 Y92.840 F1200.000 E16.55303
G1 X59.728 Y93.814 F4800.000
G1 X68.480 Y102.566 F1200.000 E16.70826
G1 X68.366 Y103.427 F4800.000
G1 X59.728 Y94.788 F1200.000 E16.86147
G1 X59.728 Y95.763 F4800.000
G1 X68.253 Y104.288 F1200.000 E17.01267
G1 X68.140 Y105.148 F4800.000
G1 X59.728 Y96.736 F1200.000 E17.16185
G1 X59.728 Y97.711 F4800.000
G1 X68.174 Y106.157 F1200.000 E17.31165
G1 X68.322 Y107.279 F4800.000
G1 X59.728 Y98.685 F1200.000 E17.46407
G1 X59.728 Y99.659 F4800.000
G1 X68.469 Y108.400 F1200.000 E17.61910
G1 F600.000 E17.11910
G92 E0
G1 X59.728 Y103.556 F4800.000
G1 F600.000 E0.50000
G1 X105.779 Y149.607 F1200.000 E1.31675
G1 X104.805 Y149.607 F4800.000
G1 X59.091 Y103.893 F1200.000 E2.12752
G1 X58.117 Y103.893 F4800.000
G1 X103.831 Y149.607 F1200.000 E2.93829
G1 X102.856 Y149.607 F4800.000
