; generated by Slic3r 0.9.8 on 2013-01-22 at 22:25:31

; layer_height = 0.25
; perimeters = 2
; top_solid_layers = 3
; bottom_solid_layers = 3
; fill_density = .3
; perimeter_speed = 50
; infill_speed = 50
; travel_speed = 80
; scale = 1
; nozzle_diameter = 0.5
; filament_diameter = 3.0
; extrusion_multiplier = 1
; perimeters extrusion width = 0.80mm
; infill extrusion width = 0.80mm
; first layer extrusion width = 0.80mm

M107
M190 S90 ; wait for bed temperature to be reached
M104 S225 ; set temperature
G28 ; home all
M140 S75 ; turn on bed
M109 S225 ; wait for temperature to be reached
G90 ; use absolute coordinates
G21 ; set units to millimeters
G92 E0
M82 ; use absolute distances for extrusion
G1 F600.000 E-0.50000
G92 E0
G1 Z0.125 F4800.000
G1 X30.900 Y154.975
G1 F600.000 E0.50000
G1 X30.230 Y154.925 F1200.000 E0.50919
G1 X29.800 Y154.835 E0.51519
G1 X29.160 Y154.625 E0.52440
G1 X28.760 Y154.435 E0.53046
G1 X28.560 Y154.325 E0.53358
G1 X28.190 Y154.075 E0.53968
G1 X27.850 Y153.795 E0.54571
G1 X27.530 Y153.485 E0.55180
G1 X27.120 Y152.955 E0.56096
G1 X26.890 Y152.575 E0.56703
G1 X16.780 Y133.695 E0.85985
G1 X16.680 Y133.465 E0.86328
G1 X16.520 Y132.995 E0.87007
G1 X16.460 Y132.755 E0.87345
G1 X16.380 Y132.265 E0.88024
G1 X16.350 Y131.765 E0.88709
G1 X16.350 Y125.965 E0.96639
G1 X16.380 Y125.505 E0.97270
G1 X16.450 Y125.055 E0.97892
G1 X16.630 Y124.395 E0.98828
G1 X16.810 Y123.975 E0.99452
G1 X17.030 Y123.575 E1.00077
G1 X17.290 Y123.205 E1.00695
G1 X17.580 Y122.855 E1.01316
G1 X41.530 Y99.765 E1.46803
G1 X55.770 Y86.265 E1.73631
G1 X56.120 Y85.965 E1.74262
G1 X56.500 Y85.705 E1.74891
G1 X56.700 Y85.585 E1.75210
G1 X57.110 Y85.385 E1.75834
G1 X57.540 Y85.225 E1.76461
G1 X57.990 Y85.115 E1.77095
G1 X58.440 Y85.045 E1.77717
G1 X58.900 Y85.015 E1.78347
G1 X101.100 Y85.015 E2.36046
G1 X101.790 Y85.075 E2.36993
G1 X102.240 Y85.165 E2.37621
G1 X102.460 Y85.225 E2.37933
G1 X102.890 Y85.385 E2.38560
G1 X103.300 Y85.585 E2.39184
G1 X103.880 Y85.965 E2.40132
G1 X104.230 Y86.265 E2.40762
G1 X118.460 Y99.765 E2.67581
G1 X142.250 Y122.695 E3.12758
G1 X142.570 Y123.025 E3.13386
G1 X142.970 Y123.575 E3.14316
G1 X143.190 Y123.975 E3.14940
G1 X143.370 Y124.395 E3.15565
G1 X143.550 Y125.055 E3.16500
G1 X143.640 Y125.735 E3.17438
G1 X143.640 Y132.005 E3.26011
G1 X143.590 Y132.495 E3.26685
G1 X143.540 Y132.745 E3.27033
G1 X143.480 Y132.985 E3.27371
G1 X143.320 Y133.455 E3.28050
G1 X143.110 Y133.905 E3.28729
G1 X133.000 Y152.765 E3.57987
G1 X132.750 Y153.135 E3.58598
G1 X132.470 Y153.485 E3.59211
G1 X132.150 Y153.795 E3.59820
G1 X131.810 Y154.075 E3.60422
G1 X131.440 Y154.325 E3.61033
G1 X130.840 Y154.625 E3.61950
G1 X130.420 Y154.775 E3.62560
G1 X129.990 Y154.885 E3.63166
G1 X129.770 Y154.925 E3.63472
G1 X129.100 Y154.975 E3.64391
G1 X31.016 Y154.975 E4.98498
G1 X30.900 Y154.975 E4.98657
G1 X30.690 Y154.195 F4800.000
G1 X30.260 Y154.145 F1200.000 E4.99249
G1 X29.840 Y154.045 E4.99839
G1 X29.440 Y153.905 E5.00419
G1 X29.050 Y153.715 E5.01012
G1 X28.690 Y153.485 E5.01596
G1 X28.360 Y153.215 E5.02179
G1 X28.060 Y152.915 E5.02759
G1 X27.920 Y152.745 E5.03060
G1 X27.680 Y152.395 E5.03640
G1 X17.470 Y133.335 E5.33204
G1 X17.300 Y132.905 E5.33836
G1 X17.240 Y132.685 E5.34148
G1 X17.190 Y132.455 E5.34470
G1 X17.130 Y131.995 E5.35104
G1 X17.130 Y125.745 E5.43650
G1 X17.180 Y125.315 E5.44241
G1 X17.280 Y124.895 E5.44832
G1 X17.430 Y124.485 E5.45429
G1 X17.620 Y124.105 E5.46010
G1 X17.850 Y123.735 E5.46605
G1 X18.280 Y123.245 E5.47497
G1 X42.060 Y100.325 E5.92654
G1 X56.300 Y86.825 E6.19483
G1 X56.820 Y86.415 E6.20388
G1 X57.200 Y86.195 E6.20989
G1 X57.400 Y86.105 E6.21289
G1 X57.810 Y85.955 E6.21886
G1 X58.030 Y85.895 E6.22197
G1 X58.240 Y85.845 E6.22492
G1 X58.680 Y85.795 E6.23098
G1 X101.320 Y85.795 E6.81398
G1 X101.760 Y85.845 E6.82004
G1 X101.970 Y85.895 E6.82299
G1 X102.400 Y86.025 E6.82913
G1 X102.800 Y86.195 E6.83508
G1 X103.180 Y86.415 E6.84108
G1 X103.700 Y86.825 E6.85013
G1 X117.930 Y100.325 E7.11832
G1 X141.720 Y123.245 E7.57000
G1 X142.010 Y123.565 E7.57590
G1 X142.270 Y123.915 E7.58186
G1 X142.570 Y124.485 E7.59067
G1 X142.720 Y124.895 E7.59664
G1 X142.820 Y125.315 E7.60254
G1 X142.870 Y125.745 E7.60846
G1 X142.870 Y131.985 E7.69378
G1 X142.810 Y132.445 E7.70012
G1 X142.760 Y132.675 E7.70334
G1 X142.620 Y133.115 E7.70965
G1 X142.430 Y133.535 E7.71596
G1 X132.320 Y152.395 E8.00854
G1 X132.080 Y152.745 E8.01434
G1 X131.940 Y152.905 E8.01725
G1 X131.640 Y153.215 E8.02314
G1 X131.310 Y153.485 E8.02897
G1 X130.950 Y153.715 E8.03481
G1 X130.560 Y153.905 E8.04075
G1 X130.160 Y154.045 E8.04654
G1 X129.740 Y154.145 E8.05244
G1 X129.310 Y154.195 E8.05836
G1 X30.806 Y154.195 E9.40518
G1 X30.690 Y154.195 E9.40677
G1 F600.000 E8.90677
G92 E0
G1 X42.684 Y118.918 F4800.000
G1 F600.000 E0.50000
G1 X41.503 Y118.284 F1200.000 E0.51832
G1 X40.527 Y117.367 E0.53664
G1 X39.821 Y116.228 E0.55497
G1 X39.434 Y114.945 E0.57329
G1 X39.392 Y113.605 E0.59161
G1 X39.699 Y112.301 E0.60993
G1 X40.332 Y111.120 E0.62826
G1 X41.250 Y110.143 E0.64658
G1 X42.389 Y109.437 E0.66490
G1 X43.672 Y109.051 E0.68322
G1 X45.011 Y109.009 E0.70155
G1 X46.316 Y109.315 E0.71987
G1 X47.497 Y109.949 E0.73819
G1 X48.473 Y110.867 E0.75651
G1 X49.179 Y112.006 E0.77483
G1 X49.566 Y113.289 E0.79316
G1 X49.608 Y114.628 E0.81148
G1 X49.301 Y115.933 E0.82980
G1 X48.668 Y117.113 E0.84812
G1 X47.750 Y118.090 E0.86645
G1 X46.611 Y118.796 E0.88477
G1 X45.328 Y119.183 E0.90309
G1 X43.989 Y119.224 E0.92141
G1 X42.797 Y118.944 E0.93815
G1 X42.684 Y118.918 E0.93973
G1 X42.960 Y118.189 F4800.000
G1 X41.958 Y117.651 F1200.000 E0.95527
G1 X41.130 Y116.873 E0.97081
G1 X40.532 Y115.907 E0.98635
G1 X40.204 Y114.819 E1.00189
G1 X40.168 Y113.683 E1.01743
G1 X40.428 Y112.577 E1.03297
G1 X40.965 Y111.575 E1.04851
G1 X41.744 Y110.747 E1.06404
G1 X42.710 Y110.148 E1.07958
G1 X43.798 Y109.820 E1.09512
G1 X44.934 Y109.785 E1.11066
G1 X46.040 Y110.045 E1.12620
G1 X47.042 Y110.582 E1.14174
G1 X47.870 Y111.360 E1.15728
G1 X48.468 Y112.326 E1.17282
G1 X48.796 Y113.414 E1.18835
G1 X48.832 Y114.550 E1.20389
G1 X48.572 Y115.657 E1.21943
G1 X48.035 Y116.658 E1.23497
G1 X47.256 Y117.486 E1.25051
G1 X46.290 Y118.085 E1.26605
G1 X45.202 Y118.413 E1.28159
G1 X44.066 Y118.448 E1.29713
G1 X43.073 Y118.215 E1.31108
G1 X42.960 Y118.189 E1.31267
G1 X42.341 Y118.652 F4800.000
G1 F600.000 E0.81267
G92 E0
G1 X110.434 Y114.944 F4800.000
G1 F600.000 E0.50000
G1 X110.392 Y113.605 F1200.000 E0.51832
G1 X110.699 Y112.300 E0.53664
G1 X111.332 Y111.120 E0.55497
G1 X112.250 Y110.143 E0.57329
G1 X113.389 Y109.437 E0.59161
G1 X114.672 Y109.050 E0.60993
G1 X116.011 Y109.009 E0.62826
G1 X117.316 Y109.315 E0.64658
G1 X118.497 Y109.949 E0.66490
G1 X119.473 Y110.866 E0.68322
G1 X120.179 Y112.006 E0.70154
G1 X120.566 Y113.289 E0.71987
G1 X120.608 Y114.628 E0.73819
G1 X120.301 Y115.933 E0.75651
G1 X119.668 Y117.113 E0.77483
G1 X118.750 Y118.090 E0.79316
G1 X117.611 Y118.796 E0.81148
G1 X116.328 Y119.183 E0.82980
G1 X114.989 Y119.224 E0.84812
G1 X113.684 Y118.918 E0.86645
G1 X112.503 Y118.284 E0.88477
G1 X111.527 Y117.367 E0.90309
G1 X110.821 Y116.227 E0.92141
G1 X110.467 Y115.055 E0.93815
G1 X110.434 Y114.944 E0.93973
G1 X111.204 Y114.819 F4800.000
G1 X111.168 Y113.683 F1200.000 E0.95527
G1 X111.428 Y112.576 E0.97081
G1 X111.965 Y111.575 E0.98635
G1 X112.744 Y110.747 E1.00189
G1 X113.710 Y110.148 E1.01743
G1 X114.798 Y109.820 E1.03297
G1 X115.934 Y109.785 E1.04851
G1 X117.040 Y110.045 E1.06404
G1 X118.042 Y110.582 E1.07958
G1 X118.870 Y111.360 E1.09512
G1 X119.468 Y112.326 E1.11066
G1 X119.796 Y113.414 E1.12620
G1 X119.832 Y114.550 E1.14174
G1 X119.572 Y115.657 E1.15728
G1 X119.035 Y116.658 E1.17282
G1 X118.256 Y117.486 E1.18835
G1 X117.290 Y118.085 E1.20389
G1 X116.202 Y118.413 E1.21943
G1 X115.066 Y118.448 E1.23497
G1 X113.960 Y118.188 E1.25051
G1 X112.958 Y117.651 E1.26605
G1 X112.130 Y116.873 E1.28159
G1 X111.532 Y115.907 E1.29713
G1 X111.237 Y114.930 E1.31108
G1 X111.204 Y114.819 E1.31267
G1 X110.493 Y114.514 F4800.000
G1 F600.000 E0.81267
G92 E0
G1 X91.446 Y108.095 F4800.000
G1 F600.000 E0.50000
G1 X90.262 Y110.953 F1200.000 E0.54230
G1 X88.379 Y113.407 E0.58459
G1 X85.925 Y115.290 E0.62689
G1 X83.067 Y116.474 E0.66918
G1 X80.000 Y116.878 E0.71148
G1 X76.933 Y116.474 E0.75377
G1 X74.075 Y115.290 E0.79607
G1 X71.621 Y113.407 E0.83836
G1 X69.738 Y110.953 E0.88066
G1 X68.554 Y108.095 E0.92295
G1 X68.150 Y105.028 E0.96525
G1 X68.554 Y101.961 E1.00754
G1 X69.738 Y99.103 E1.04984
G1 X71.621 Y96.649 E1.09213
G1 X74.075 Y94.766 E1.13443
G1 X76.933 Y93.582 E1.17673
G1 X80.000 Y93.178 E1.21902
G1 X83.067 Y93.582 E1.26132
G1 X85.925 Y94.766 E1.30361
G1 X88.379 Y96.649 E1.34591
G1 X90.262 Y99.103 E1.38820
G1 X91.446 Y101.961 E1.43050
G1 X91.850 Y105.028 E1.47279
G1 X91.461 Y107.980 E1.51350
G1 X91.446 Y108.095 E1.51509
G1 X90.693 Y107.893 F4800.000
G1 X89.587 Y110.563 F1200.000 E1.55460
G1 X87.828 Y112.855 E1.59411
G1 X85.535 Y114.615 E1.63362
G1 X82.865 Y115.721 E1.67313
G1 X80.000 Y116.098 E1.71265
G1 X77.135 Y115.721 E1.75216
G1 X74.465 Y114.615 E1.79167
G1 X72.172 Y112.855 E1.83118
G1 X70.413 Y110.563 E1.87069
G1 X69.307 Y107.893 E1.91021
G1 X68.930 Y105.028 E1.94972
G1 X69.307 Y102.163 E1.98923
G1 X70.413 Y99.493 E2.02874
G1 X72.172 Y97.200 E2.06825
G1 X74.465 Y95.441 E2.10776
G1 X77.135 Y94.335 E2.14728
G1 X80.000 Y93.958 E2.18679
G1 X82.865 Y94.335 E2.22630
G1 X85.535 Y95.441 E2.26581
G1 X87.828 Y97.200 E2.30532
G1 X89.587 Y99.493 E2.34483
G1 X90.693 Y102.163 E2.38435
G1 X91.070 Y105.028 E2.42386
G1 X90.708 Y107.778 E2.46178
G1 X90.693 Y107.893 E2.46337
G1 X91.215 Y108.463 F4800.000
G1 F600.000 E1.96337
G92 E0
G1 X81.165 Y138.693 F4800.000
G1 F600.000 E0.50000
G1 X82.032 Y139.052 F1200.000 E0.51283
G1 X82.776 Y139.623 E0.52566
G1 X83.348 Y140.368 E0.53849
G1 X83.707 Y141.235 E0.55132
G1 X83.829 Y142.165 E0.56416
G1 X83.707 Y143.096 E0.57699
G1 X83.348 Y143.963 E0.58982
G1 X82.776 Y144.707 E0.60265
G1 X82.032 Y145.278 E0.61548
G1 X81.165 Y145.637 E0.62831
G1 X80.234 Y145.760 E0.64114
G1 X79.304 Y145.637 E0.65397
G1 X78.437 Y145.278 E0.66680
G1 X77.692 Y144.707 E0.67963
G1 X77.121 Y143.963 E0.69247
G1 X76.762 Y143.095 E0.70530
G1 X76.639 Y142.165 E0.71813
G1 X76.762 Y141.235 E0.73096
G1 X77.121 Y140.368 E0.74379
G1 X77.692 Y139.623 E0.75662
G1 X78.437 Y139.052 E0.76945
G1 X79.304 Y138.693 E0.78228
G1 X80.234 Y138.570 E0.79511
G1 X81.050 Y138.678 E0.80636
G1 X81.165 Y138.693 E0.80795
G1 X80.963 Y139.446 F4800.000
G1 X81.642 Y139.727 F1200.000 E0.81799
G1 X82.225 Y140.175 E0.82804
G1 X82.672 Y140.758 E0.83809
G1 X82.953 Y141.437 E0.84814
G1 X83.049 Y142.165 E0.85818
G1 X82.953 Y142.894 E0.86823
G1 X82.672 Y143.573 E0.87828
G1 X82.225 Y144.156 E0.88833
G1 X81.642 Y144.603 E0.89837
G1 X80.963 Y144.884 E0.90842
G1 X80.234 Y144.980 E0.91847
G1 X79.506 Y144.884 E0.92852
G1 X78.827 Y144.603 E0.93856
G1 X78.244 Y144.156 E0.94861
G1 X77.796 Y143.573 E0.95866
G1 X77.515 Y142.894 E0.96871
G1 X77.419 Y142.165 E0.97875
G1 X77.515 Y141.437 E0.98880
G1 X77.796 Y140.758 E0.99885
G1 X78.244 Y140.175 E1.00890
G1 X78.827 Y139.727 E1.01894
G1 X79.506 Y139.446 E1.02899
G1 X80.234 Y139.350 E1.03904
G1 X80.848 Y139.431 E1.04750
G1 X80.963 Y139.446 E1.04909
G1 X81.533 Y138.924 F4800.000
G1 F600.000 E0.54909
G92 E0
G1 X138.327 Y126.741 F4800.000
G1 F600.000 E0.50000
G1 X138.327 Y130.992 F1200.000 E0.55812
G1 X128.327 Y130.992 E0.69485
G1 X128.327 Y149.662 E0.95012
G1 X31.673 Y149.662 E2.27163
G1 X31.673 Y130.992 E2.52690
G1 X21.673 Y130.992 E2.66363
G1 X21.673 Y126.741 E2.72175
G1 X31.673 Y126.741 E2.85847
G1 X31.673 Y117.151 E2.98960
G1 X44.986 Y103.838 E3.24702
G1 X59.673 Y103.838 E3.44783
G1 X59.673 Y90.338 E3.63241
G1 X100.327 Y90.338 E4.18826
G1 X100.327 Y103.838 E4.37284
G1 X115.014 Y103.838 E4.57365
G1 X128.327 Y117.151 E4.83107
G1 X128.327 Y126.741 E4.96219
G1 X138.211 Y126.741 E5.09733
G1 X138.327 Y126.741 E5.09892
G1 X139.100 Y125.968 F4800.000
G1 X139.100 Y131.765 F1200.000 E5.17819
G1 X129.100 Y131.765 E5.31491
G1 X129.100 Y150.435 E5.57018
G1 X30.900 Y150.435 E6.91284
G1 X30.900 Y131.765 E7.16811
G1 X20.900 Y131.765 E7.30483
G1 X20.900 Y125.968 E7.38409
G1 X30.900 Y125.968 E7.52082
G1 X30.900 Y116.831 E7.64575
G1 X44.666 Y103.065 E7.91193
G1 X58.900 Y103.065 E8.10655
G1 X58.900 Y89.565 E8.29113
G1 X101.100 Y89.565 E8.86812
G1 X101.100 Y103.065 E9.05270
G1 X115.334 Y103.065 E9.24733
G1 X129.100 Y116.831 E9.51350
G1 X129.100 Y125.968 E9.63843
G1 X138.984 Y125.968 E9.77357
G1 X139.100 Y125.968 E9.77516
G1 X138.713 Y126.637 F4800.000
G1 F600.000 E9.27516
G92 E0
G1 X136.251 Y127.268 F4800.000
G1 F600.000 E0.50000
G1 X137.800 Y128.817 F1200.000 E0.53014
G1 X137.800 Y129.917 E0.54528
G1 X135.150 Y127.268 E0.59682
G1 X134.050 Y127.268 E0.61196
G1 X137.247 Y130.465 E0.67416
G1 X136.147 Y130.465 E0.68929
G1 X132.950 Y127.268 E0.75149
G1 X131.850 Y127.268 E0.76663
G1 X135.046 Y130.465 E0.82882
G1 X133.946 Y130.465 E0.84396
G1 X130.749 Y127.268 E0.90616
G1 X129.649 Y127.268 E0.92129
G1 X132.846 Y130.465 E0.98349
G1 X131.746 Y130.465 E0.99862
G1 X128.549 Y127.268 E1.06082
G1 X127.800 Y127.619 F4800.000
G1 X118.769 Y118.589 F1200.000 E1.23652
G1 X119.352 Y118.071 F4800.000
G1 X127.800 Y126.519 F1200.000 E1.40089
G1 X127.449 Y127.268 F4800.000
G1 X130.645 Y130.465 F1200.000 E1.46308
G1 X129.545 Y130.465 E1.47822
G1 X118.090 Y119.010 E1.70109
G1 X117.344 Y119.364 E1.71245
G1 X128.445 Y130.465 E1.92844
G1 X127.800 Y130.920 F4800.000
G1 X116.498 Y119.618 F1200.000 E2.14832
G1 X115.508 Y119.728 E2.16203
G1 X127.800 Y132.020 E2.40120
G1 X127.800 Y133.121 E2.41633
G1 X114.362 Y119.683 E2.67777
G1 X112.770 Y119.191 E2.70071
G1 X127.800 Y134.221 E2.99313
G1 X127.800 Y135.321 E3.00827
G1 X89.852 Y97.373 E3.74659
G1 X91.289 Y99.911 E3.78672
G1 X127.800 Y136.421 E4.49708
G1 X127.800 Y137.522 E4.51221
G1 X91.978 Y101.699 E5.20917
G1 X92.144 Y102.966 E5.22675
G1 X127.800 Y138.622 E5.92047
G1 X127.800 Y139.722 E5.93561
G1 X92.311 Y104.233 E6.62608
G1 X92.311 Y105.333 E6.64121
G1 X127.800 Y140.822 E7.33169
G1 X127.800 Y141.923 E7.34683
G1 X92.183 Y106.305 E8.03980
G1 X92.055 Y107.278 E8.05329
G1 X127.800 Y143.023 E8.74875
G1 X127.799 Y144.122 E8.76388
G1 X91.887 Y108.210 E9.46259
G1 X91.565 Y108.988 E9.47417
G1 X127.799 Y145.223 E10.17916
G1 X127.799 Y146.323 E10.19429
G1 X91.242 Y109.766 E10.90555
G1 X90.920 Y110.544 E10.91713
G1 X127.799 Y147.423 E11.63465
G1 X127.800 Y148.523 E11.64978
G1 X90.553 Y111.276 E12.37445
G1 X90.076 Y111.899 E12.38524
G1 X127.311 Y149.134 E13.10970
G1 X126.211 Y149.134 E13.12483
G1 X89.598 Y112.521 E13.83718
G1 X89.120 Y113.144 E13.84797
G1 X125.111 Y149.134 E14.54820
G1 X124.011 Y149.134 E14.56334
G1 X88.630 Y113.754 E15.25171
G1 X88.007 Y114.232 E15.26250
G1 X122.910 Y149.134 E15.94157
G1 X121.810 Y149.134 E15.95671
G1 X87.385 Y114.709 E16.62649
G1 X86.762 Y115.187 E16.63728
G1 X120.710 Y149.134 E17.29776
G1 X119.609 Y149.134 E17.31290
G1 X86.140 Y115.665 E17.96409
G1 X85.379 Y116.005 E17.97555
G1 X118.509 Y149.134 E18.62012
G1 X117.409 Y149.134 E18.63526
G1 X84.601 Y116.327 E19.27356
G1 X83.823 Y116.649 E19.28515
G1 X116.309 Y149.134 E19.91718
G1 X115.208 Y149.134 E19.93232
G1 X83.046 Y116.971 E20.55808
G1 X82.079 Y117.105 E20.57151
G1 X114.108 Y149.134 E21.19467
G1 X113.008 Y149.134 E21.20981
G1 X81.107 Y117.233 E21.83048
G1 X80.134 Y117.361 E21.84397
G1 X111.908 Y149.134 E22.46215
G1 X110.807 Y149.134 E22.47729
G1 X78.983 Y117.310 E23.09647
G1 X77.716 Y117.143 E23.11405
G1 X109.707 Y149.134 E23.73648
G1 X108.607 Y149.134 E23.75162
G1 X76.431 Y116.959 E24.37763
G1 X74.553 Y116.181 E24.40560
G1 X107.507 Y149.134 E25.04675
G1 X106.406 Y149.134 E25.06189
G1 X71.514 Y114.242 E25.74075
G1 X70.785 Y113.513 F4800.000
G1 X60.200 Y102.928 F1200.000 E25.94669
G1 X60.200 Y104.028 E25.96183
G1 X105.306 Y149.135 E26.83942
G1 X104.206 Y149.135 E26.85456
G1 X59.437 Y104.366 E27.72559
G1 X58.337 Y104.366 E27.74073
G1 X103.106 Y149.135 E28.61176
G1 X102.006 Y149.135 E28.62690
G1 X57.237 Y104.366 E29.49793
G1 X56.136 Y104.366 E29.51307
G1 X100.906 Y149.135 E30.38410
G1 X99.805 Y149.135 E30.39923
G1 X55.036 Y104.366 E31.27027
